;FLAVOR:Marlin
;TIME:1965
;Filament used: 1.21907m
;Layer height: 0.1
;MINX:134.322
;MINY:54.552
;MINZ:0.3
;MAXX:189.922
;MAXY:119.902
;MAXZ:3
;TARGET_MACHINE.NAME:Hellbot Magna 2 300
;Generated with Cura_SteamEngine 5.10.0
M140 S60
M105
M190 S60
M104 S200
M105
M109 S200
G28 ;Home
G1 Z15.0 F6000 ;Move the platform down 15mm
;Prime the extruder
G92 E0
G1 F200 E3
G92 E0
M82 ;absolute extrusion mode
G92 E0
G92 E0
G1 F1500 E-6.5
;LAYER_COUNT:28
;LAYER:0
M107
G0 F3600 X134.744 Y59.673 Z0.3
;TYPE:SKIRT
G1 F1500 E0
G1 F1800 X135.739 Y57.902 E0.10135
G1 X136.512 Y56.904 E0.16432
G1 X137.865 Y55.812 E0.25107
G1 X139.844 Y54.826 E0.36138
G1 X141.368 Y54.604 E0.43821
G1 X182.744 Y54.552 E2.50247
G1 X184.801 Y54.974 E2.60723
G1 X186.572 Y55.969 E2.70858
G1 X187.57 Y56.742 E2.77156
G1 X188.662 Y58.095 E2.8583
G1 X189.648 Y60.074 E2.96861
G1 X189.87 Y61.598 E3.04544
G1 X189.922 Y112.724 E5.59613
G1 X189.5 Y114.781 E5.70089
G1 X188.505 Y116.552 E5.80224
G1 X187.732 Y117.55 E5.86522
G1 X186.379 Y118.642 E5.95196
G1 X184.399 Y119.628 E6.06232
G1 X182.821 Y119.854 E6.14185
G1 X176.521 Y119.902 E6.45616
G1 X174.445 Y119.478 E6.56187
G1 X172.572 Y118.421 E6.66917
G1 X171.689 Y117.73 E6.72511
G1 X170.58 Y116.353 E6.81332
G1 X169.596 Y114.379 E6.92336
G1 X169.374 Y112.856 E7.00014
G1 X169.327 Y90.152 E8.13285
G1 X154.922 Y90.152 E8.85152
G1 X154.922 Y112.724 E9.97764
G1 X154.5 Y114.781 E10.08241
G1 X153.505 Y116.552 E10.18375
G1 X152.732 Y117.55 E10.24673
G1 X151.379 Y118.64 E10.33341
G1 X149.393 Y119.629 E10.4441
G1 X147.534 Y119.875 E10.53765
G1 X141.44 Y119.902 E10.84169
G1 X139.409 Y119.461 E10.94538
G1 X137.672 Y118.485 E11.04478
G1 X136.674 Y117.712 E11.10776
G1 X135.582 Y116.359 E11.1945
G1 X134.596 Y114.38 E11.30481
G1 X134.374 Y112.856 E11.38164
G1 X134.322 Y61.73 E13.93233
G1 X134.744 Y59.673 E14.03709
G0 F3600 X135.124 Y59.814
G1 F1800 X136.055 Y58.147 E14.13235
G1 X136.8 Y57.185 E14.19306
G1 X138.082 Y56.151 E14.27523
G1 X139.964 Y55.213 E14.38014
G1 X141.426 Y55 E14.45384
G1 X182.703 Y54.952 E16.51316
G1 X184.66 Y55.354 E16.61284
G1 X186.327 Y56.285 E16.7081
G1 X187.289 Y57.03 E16.7688
G1 X188.323 Y58.312 E16.85097
G1 X189.261 Y60.194 E16.95588
G1 X189.474 Y61.656 E17.02959
G1 X189.522 Y112.683 E19.57534
G1 X189.12 Y114.64 E19.67501
G1 X188.189 Y116.307 E19.77027
G1 X187.444 Y117.269 E19.83097
G1 X186.162 Y118.303 E19.91314
G1 X184.28 Y119.241 E20.01805
G1 X182.818 Y119.454 E20.09176
G1 X176.56 Y119.502 E20.40398
G1 X174.587 Y119.099 E20.50445
G1 X172.819 Y118.106 E20.60562
G1 X171.972 Y117.443 E20.65928
G1 X170.917 Y116.133 E20.74319
G1 X169.983 Y114.259 E20.84766
G1 X169.77 Y112.798 E20.92132
G1 X169.726 Y89.752 E22.07109
G1 X154.522 Y89.752 E22.82962
G1 X154.522 Y112.683 E23.97365
G1 X154.12 Y114.64 E24.07333
G1 X153.189 Y116.307 E24.16858
G1 X152.444 Y117.269 E24.22929
G1 X151.163 Y118.301 E24.31136
G1 X149.276 Y119.241 E24.41653
G1 X147.482 Y119.478 E24.50681
G1 X141.483 Y119.502 E24.80611
G1 X139.551 Y119.082 E24.90475
G1 X137.917 Y118.169 E24.99813
G1 X136.955 Y117.424 E25.05883
G1 X135.921 Y116.142 E25.141
G1 X134.983 Y114.26 E25.24591
G1 X134.77 Y112.798 E25.31962
G1 X134.722 Y61.771 E27.86537
G1 X135.124 Y59.814 E27.96504
G0 F3600 X135.504 Y59.955
G1 F1800 X136.371 Y58.392 E28.05422
G1 X137.088 Y57.466 E28.11264
G1 X138.299 Y56.49 E28.19024
G1 X140.084 Y55.6 E28.28975
G1 X141.484 Y55.396 E28.36033
G1 X182.661 Y55.352 E30.41466
G1 X184.519 Y55.734 E30.5093
G1 X186.082 Y56.601 E30.59847
G1 X187.008 Y57.318 E30.6569
G1 X187.984 Y58.529 E30.7345
G1 X188.874 Y60.314 E30.83401
G1 X189.078 Y61.714 E30.90459
G1 X189.122 Y112.641 E33.44535
G1 X188.74 Y114.499 E33.53998
G1 X187.873 Y116.062 E33.62916
G1 X187.156 Y116.988 E33.68758
G1 X185.945 Y117.964 E33.76518
G1 X184.16 Y118.854 E33.86469
G1 X182.76 Y119.058 E33.93527
G1 X176.599 Y119.102 E34.24266
G1 X174.727 Y118.719 E34.33798
G1 X173.066 Y117.791 E34.43291
G1 X172.253 Y117.154 E34.48444
G1 X171.256 Y115.917 E34.5637
G1 X170.37 Y114.139 E34.66281
G1 X170.166 Y112.74 E34.73334
G1 X170.125 Y89.352 E35.90018
G1 X154.122 Y89.352 E36.69857
G1 X154.122 Y112.641 E37.86046
G1 X153.74 Y114.499 E37.9551
G1 X152.873 Y116.062 E38.04427
G1 X152.156 Y116.988 E38.1027
G1 X150.947 Y117.962 E38.18015
G1 X149.157 Y118.854 E38.27993
G1 X147.48 Y119.078 E38.36434
G1 X141.526 Y119.102 E38.66139
G1 X139.694 Y118.704 E38.75492
G1 X138.162 Y117.853 E38.84235
G1 X137.236 Y117.136 E38.90078
G1 X136.26 Y115.925 E38.97838
G1 X135.37 Y114.14 E39.07789
G1 X135.166 Y112.74 E39.14847
G1 X135.122 Y61.813 E41.68923
G1 X135.504 Y59.955 E41.78386
G0 F3600 X135.884 Y60.095
G1 F1800 X136.721 Y58.586 E41.86995
G1 X137.373 Y57.75 E41.92285
G1 X138.519 Y56.827 E41.99626
G1 X140.204 Y55.987 E42.09019
G1 X141.542 Y55.792 E42.15765
G1 X182.619 Y55.752 E44.20699
G1 X184.379 Y56.114 E44.29664
G1 X185.888 Y56.951 E44.38273
G1 X186.724 Y57.603 E44.43562
G1 X187.647 Y58.749 E44.50903
G1 X188.487 Y60.434 E44.60296
G1 X188.682 Y61.772 E44.67042
G1 X188.722 Y112.599 E47.20619
G1 X188.36 Y114.359 E47.29584
G1 X187.523 Y115.868 E47.38193
G1 X186.871 Y116.704 E47.43482
G1 X185.725 Y117.627 E47.50823
G1 X184.04 Y118.467 E47.60216
G1 X182.702 Y118.662 E47.66962
G1 X176.638 Y118.702 E47.97216
G1 X174.868 Y118.34 E48.0623
G1 X173.313 Y117.476 E48.15105
G1 X172.534 Y116.865 E48.20044
G1 X171.595 Y115.7 E48.27509
G1 X170.757 Y114.019 E48.3688
G1 X170.562 Y112.682 E48.43621
G1 X170.524 Y88.952 E49.6201
G1 X153.722 Y88.952 E50.45836
G1 X153.722 Y112.599 E51.63811
G1 X153.36 Y114.359 E51.72776
G1 X152.523 Y115.868 E51.81385
G1 X151.871 Y116.704 E51.86674
G1 X150.727 Y117.625 E51.94001
G1 X149.038 Y118.467 E52.03417
G1 X147.478 Y118.678 E52.1127
G1 X141.569 Y118.702 E52.40751
G1 X139.837 Y118.326 E52.49593
G1 X138.356 Y117.503 E52.58046
G1 X137.52 Y116.851 E52.63335
G1 X136.597 Y115.705 E52.70677
G1 X135.757 Y114.02 E52.8007
G1 X135.562 Y112.682 E52.86816
G1 X135.522 Y61.855 E55.40393
G1 X135.884 Y60.095 E55.49357
G0 F3600 X136.264 Y60.235
G1 F1800 X137.071 Y58.78 E55.57658
G1 X137.657 Y58.035 E55.62387
G1 X138.739 Y57.164 E55.69317
G1 X140.324 Y56.374 E55.78152
G1 X141.6 Y56.188 E55.84585
G1 X182.577 Y56.152 E57.8902
G1 X184.239 Y56.494 E57.97486
G1 X185.694 Y57.301 E58.05787
G1 X186.439 Y57.887 E58.10515
G1 X187.31 Y58.969 E58.17445
G1 X188.1 Y60.554 E58.26281
G1 X188.286 Y61.83 E58.32714
G1 X188.322 Y112.557 E60.85792
G1 X187.98 Y114.219 E60.94258
G1 X187.173 Y115.674 E61.02558
G1 X186.587 Y116.419 E61.07287
G1 X185.505 Y117.29 E61.14217
G1 X183.92 Y118.08 E61.23052
G1 X182.644 Y118.266 E61.29486
G1 X176.678 Y118.302 E61.59251
G1 X175.007 Y117.96 E61.6776
G1 X173.56 Y117.161 E61.76007
G1 X172.817 Y116.579 E61.80715
G1 X171.932 Y115.48 E61.87755
G1 X171.144 Y113.899 E61.96568
G1 X170.958 Y112.624 E62.02996
G1 X170.923 Y88.552 E63.23092
G1 X153.322 Y88.552 E64.10904
G1 X153.322 Y112.557 E65.30665
G1 X152.98 Y114.219 E65.39131
G1 X152.173 Y115.674 E65.47432
G1 X151.587 Y116.419 E65.52161
G1 X150.507 Y117.288 E65.59076
G1 X148.918 Y118.08 E65.67934
G1 X147.476 Y118.278 E65.75196
G1 X141.612 Y118.302 E66.04452
G1 X139.98 Y117.948 E66.12783
G1 X138.55 Y117.153 E66.20946
G1 X137.805 Y116.567 E66.25675
G1 X136.934 Y115.485 E66.32604
G1 X136.144 Y113.9 E66.4144
G1 X135.958 Y112.624 E66.47873
G1 X135.922 Y61.897 E69.00951
G1 X136.264 Y60.235 E69.09417
G0 F3600 X136.644 Y60.375
G1 F1800 X137.421 Y58.974 E69.17409
G1 X137.942 Y58.32 E69.21581
G1 X138.957 Y57.503 E69.28081
G1 X140.445 Y56.761 E69.36377
G1 X141.658 Y56.584 E69.42493
G1 X182.535 Y56.552 E71.46429
G1 X184.099 Y56.874 E71.54395
G1 X185.5 Y57.651 E71.62388
G1 X186.154 Y58.172 E71.6656
G1 X186.971 Y59.187 E71.7306
G1 X187.713 Y60.675 E71.81356
G1 X187.89 Y61.888 E71.87471
G1 X187.922 Y112.515 E74.4005
G1 X187.6 Y114.079 E74.48017
G1 X186.823 Y115.48 E74.5601
G1 X186.302 Y116.134 E74.60181
G1 X185.287 Y116.951 E74.66682
G1 X183.799 Y117.693 E74.74977
G1 X182.586 Y117.87 E74.81093
G1 X176.718 Y117.902 E75.10369
G1 X175.147 Y117.58 E75.1837
G1 X173.807 Y116.846 E75.25992
G1 X173.098 Y116.29 E75.30487
G1 X172.271 Y115.264 E75.37062
G1 X171.531 Y113.779 E75.45339
G1 X171.354 Y112.566 E75.51455
G1 X171.322 Y88.152 E76.73257
G1 X152.922 Y88.152 E77.65055
G1 X152.922 Y112.515 E78.86603
G1 X152.6 Y114.079 E78.94569
G1 X151.823 Y115.48 E79.02562
G1 X151.302 Y116.134 E79.06733
G1 X150.287 Y116.951 E79.13234
G1 X148.798 Y117.693 E79.21534
G1 X147.474 Y117.878 E79.28203
G1 X141.655 Y117.902 E79.57235
G1 X140.123 Y117.57 E79.65055
G1 X138.744 Y116.803 E79.72928
G1 X138.09 Y116.282 E79.77099
G1 X137.273 Y115.267 E79.836
G1 X136.531 Y113.779 E79.91895
G1 X136.354 Y112.566 E79.98011
G1 X136.322 Y61.939 E82.5059
G1 X136.644 Y60.375 E82.58557
G0 F3600 X137.024 Y60.514
G1 F1800 X137.734 Y59.223 E82.65907
G1 X138.226 Y58.606 E82.69844
G1 X139.177 Y57.84 E82.75937
G1 X140.565 Y57.148 E82.83674
G1 X141.716 Y56.98 E82.89478
G1 X182.493 Y56.952 E84.92915
G1 X183.96 Y57.254 E85.00387
G1 X185.251 Y57.964 E85.07738
G1 X185.868 Y58.456 E85.11675
G1 X186.634 Y59.407 E85.17767
G1 X187.326 Y60.795 E85.25505
G1 X187.494 Y61.946 E85.31308
G1 X187.522 Y112.473 E87.83388
G1 X187.22 Y113.94 E87.90861
G1 X186.51 Y115.231 E87.98211
G1 X186.018 Y115.848 E88.02148
G1 X185.067 Y116.614 E88.08241
G1 X183.679 Y117.306 E88.15978
G1 X182.528 Y117.474 E88.21781
G1 X176.758 Y117.502 E88.50568
G1 X175.285 Y117.2 E88.5807
G1 X174.054 Y116.531 E88.6506
G1 X173.379 Y116.001 E88.69342
G1 X172.61 Y115.048 E88.75451
G1 X171.918 Y113.659 E88.83193
G1 X171.75 Y112.508 E88.88996
G1 X171.722 Y87.752 E90.12505
G1 X152.522 Y87.752 E91.08294
G1 X152.522 Y112.473 E92.31627
G1 X152.22 Y113.94 E92.391
G1 X151.51 Y115.231 E92.4645
G1 X151.018 Y115.848 E92.50387
G1 X150.067 Y116.614 E92.5648
G1 X148.678 Y117.306 E92.64222
G1 X147.472 Y117.478 E92.70299
G1 X141.698 Y117.502 E92.99106
G1 X140.264 Y117.191 E93.06427
G1 X138.993 Y116.49 E93.13668
G1 X138.376 Y115.998 E93.17605
G1 X137.61 Y115.047 E93.23698
G1 X136.918 Y113.659 E93.31435
G1 X136.75 Y112.508 E93.37239
G1 X136.722 Y61.981 E95.89319
G1 X137.024 Y60.514 E95.96791
G0 F3600 X137.404 Y60.652
G1 F1800 X138.047 Y59.472 E96.03496
G1 X138.512 Y58.889 E96.07216
G1 X139.393 Y58.179 E96.12861
G1 X140.685 Y57.535 E96.20063
G1 X141.774 Y57.376 E96.25554
G1 X182.451 Y57.352 E98.28492
G1 X183.822 Y57.634 E98.35475
G1 X185.002 Y58.277 E98.4218
G1 X185.585 Y58.742 E98.459
G1 X186.295 Y59.623 E98.51545
G1 X186.939 Y60.915 E98.58747
G1 X187.098 Y62.004 E98.64238
G1 X187.122 Y112.431 E101.15819
G1 X186.84 Y113.802 E101.22803
G1 X186.197 Y114.982 E101.29507
G1 X185.732 Y115.565 E101.33227
G1 X184.851 Y116.275 E101.38872
G1 X183.559 Y116.919 E101.46075
G1 X182.47 Y117.078 E101.51565
G1 X176.798 Y117.102 E101.79863
G1 X175.423 Y116.82 E101.86866
G1 X174.301 Y116.216 E101.93223
G1 X173.66 Y115.713 E101.97288
G1 X172.949 Y114.831 E102.0294
G1 X172.305 Y113.539 E102.10142
G1 X172.146 Y112.45 E102.15633
G1 X172.122 Y87.352 E103.40847
G1 X152.122 Y87.352 E104.40628
G1 X152.122 Y112.431 E105.65748
G1 X151.84 Y113.802 E105.72731
G1 X151.197 Y114.982 E105.79435
G1 X150.732 Y115.565 E105.83155
G1 X149.851 Y116.275 E105.888
G1 X148.559 Y116.919 E105.96003
G1 X147.47 Y117.078 E106.01493
G1 X141.741 Y117.102 E106.30076
G1 X140.406 Y116.812 E106.36891
G1 X139.242 Y116.177 E106.43506
G1 X138.659 Y115.712 E106.47227
G1 X137.949 Y114.831 E106.52872
G1 X137.305 Y113.539 E106.60074
G1 X137.146 Y112.45 E106.65565
G1 X137.122 Y62.023 E109.17146
G1 X137.404 Y60.652 E109.24129
G0 F3600 X137.784 Y60.79
G1 F1800 X138.36 Y59.721 E109.30187
G1 X138.796 Y59.174 E109.33677
G1 X139.613 Y58.516 E109.38911
G1 X140.805 Y57.922 E109.45555
G1 X141.832 Y57.772 E109.50733
G1 X182.409 Y57.752 E111.53173
G1 X183.684 Y58.014 E111.59667
G1 X184.753 Y58.59 E111.65725
G1 X185.3 Y59.026 E111.69215
G1 X185.958 Y59.843 E111.74448
G1 X186.552 Y61.035 E111.81093
G1 X186.702 Y62.062 E111.86271
G1 X186.722 Y112.389 E114.37353
G1 X186.46 Y113.664 E114.43847
G1 X185.884 Y114.733 E114.49905
G1 X185.448 Y115.28 E114.53395
G1 X184.631 Y115.938 E114.58629
G1 X183.439 Y116.532 E114.65273
G1 X182.412 Y116.682 E114.70451
G1 X176.838 Y116.702 E114.9826
G1 X175.561 Y116.44 E115.04764
G1 X174.491 Y115.864 E115.10827
G1 X173.944 Y115.428 E115.14316
G1 X173.286 Y114.611 E115.1955
G1 X172.692 Y113.419 E115.26194
G1 X172.542 Y112.392 E115.31373
G1 X172.522 Y86.952 E116.58293
G1 X151.722 Y86.952 E117.62065
G1 X151.722 Y112.389 E118.88971
G1 X151.46 Y113.664 E118.95464
G1 X150.884 Y114.733 E119.01523
G1 X150.448 Y115.28 E119.05013
G1 X149.631 Y115.938 E119.10246
G1 X148.439 Y116.532 E119.16891
G1 X147.412 Y116.682 E119.22069
G1 X141.784 Y116.702 E119.50147
G1 X140.547 Y116.433 E119.56463
G1 X139.491 Y115.864 E119.62447
G1 X138.944 Y115.428 E119.65937
G1 X138.286 Y114.611 E119.71171
G1 X137.692 Y113.419 E119.77815
G1 X137.542 Y112.392 E119.82993
G1 X137.522 Y62.065 E122.34076
G1 X137.784 Y60.79 E122.40569
G0 F3600 X138.164 Y60.928
G1 F1800 X138.712 Y59.911 E122.46333
G1 X139.078 Y59.461 E122.49227
G1 X139.833 Y58.853 E122.54063
G1 X140.925 Y58.309 E122.6015
G1 X141.89 Y58.168 E122.65015
G1 X182.368 Y58.152 E124.66961
G1 X183.546 Y58.394 E124.72961
G1 X184.563 Y58.942 E124.78724
G1 X185.013 Y59.308 E124.81618
G1 X185.621 Y60.063 E124.86454
G1 X186.165 Y61.155 E124.92541
G1 X186.306 Y62.12 E124.97406
G1 X186.322 Y112.348 E127.47995
G1 X186.08 Y113.526 E127.53995
G1 X185.532 Y114.543 E127.59758
G1 X185.166 Y114.993 E127.62652
G1 X184.411 Y115.601 E127.67488
G1 X183.319 Y116.145 E127.73575
G1 X182.354 Y116.286 E127.78441
G1 X176.878 Y116.302 E128.0576
G1 X175.699 Y116.06 E128.11765
G1 X174.681 Y115.512 E128.17533
G1 X174.231 Y115.146 E128.20427
G1 X173.623 Y114.391 E128.25263
G1 X173.079 Y113.299 E128.3135
G1 X172.938 Y112.334 E128.36215
G1 X172.922 Y86.552 E129.64842
G1 X151.322 Y86.552 E130.72605
G1 X151.322 Y112.348 E132.01302
G1 X151.08 Y113.526 E132.07302
G1 X150.532 Y114.543 E132.13065
G1 X150.166 Y114.993 E132.15959
G1 X149.411 Y115.601 E132.20795
G1 X148.319 Y116.145 E132.26882
G1 X147.354 Y116.286 E132.31747
G1 X141.827 Y116.302 E132.59322
G1 X140.687 Y116.054 E132.65142
G1 X139.681 Y115.512 E132.70843
G1 X139.231 Y115.146 E132.73737
G1 X138.623 Y114.391 E132.78574
G1 X138.079 Y113.299 E132.8466
G1 X137.938 Y112.334 E132.89526
G1 X137.922 Y62.106 E135.40114
G1 X138.164 Y60.928 E135.46114
G0 F3600 X138.544 Y61.066
G1 F1800 X139.027 Y60.158 E135.51245
G1 X139.329 Y59.773 E135.53686
G1 X140.053 Y59.19 E135.58324
G1 X141.045 Y58.696 E135.63853
G1 X141.948 Y58.564 E135.68406
G1 X182.327 Y58.552 E137.69857
G1 X183.408 Y58.774 E137.75363
G1 X184.316 Y59.257 E137.80494
G1 X184.701 Y59.559 E137.82935
G1 X185.284 Y60.283 E137.87573
G1 X185.778 Y61.275 E137.93102
G1 X185.91 Y62.178 E137.97655
G1 X185.922 Y112.307 E140.47749
G1 X185.7 Y113.388 E140.53255
G1 X185.217 Y114.296 E140.58386
G1 X184.915 Y114.681 E140.60827
G1 X184.191 Y115.264 E140.65465
G1 X183.199 Y115.758 E140.70993
G1 X182.296 Y115.89 E140.75546
G1 X176.918 Y115.902 E141.02377
G1 X175.836 Y115.68 E141.07888
G1 X174.928 Y115.197 E141.13019
G1 X174.543 Y114.895 E141.1546
G1 X173.96 Y114.171 E141.20098
G1 X173.466 Y113.179 E141.25627
G1 X173.334 Y112.276 E141.3018
G1 X173.322 Y86.152 E142.60513
G1 X150.922 Y86.152 E143.72267
G1 X150.922 Y112.307 E145.02755
G1 X150.7 Y113.388 E145.0826
G1 X150.217 Y114.296 E145.13391
G1 X149.915 Y114.681 E145.15833
G1 X149.191 Y115.264 E145.2047
G1 X148.199 Y115.758 E145.25999
G1 X147.296 Y115.89 E145.30552
G1 X141.87 Y115.902 E145.57622
G1 X140.826 Y115.675 E145.62953
G1 X139.928 Y115.197 E145.68028
G1 X139.543 Y114.895 E145.70469
