;FLAVOR:Marlin
;TIME:2243
;Filament used: 2.34028m
;Layer height: 0.1
;MINX:54.526
;MINY:65.708
;MINZ:0.3
;MAXX:245.386
;MAXY:234.251
;MAXZ:0.4
;TARGET_MACHINE.NAME:Hellbot Magna 2 300
;Generated with Cura_SteamEngine 5.10.0
M140 S60
M105
M190 S60
M104 S200
M105
M109 S200
G28 ;Home
G1 Z15.0 F6000 ;Move the platform down 15mm
;Prime the extruder
G92 E0
G1 F200 E3
G92 E0
M82 ;absolute extrusion mode
G92 E0
G92 E0
G1 F1500 E-6.5
;LAYER_COUNT:2
;LAYER:0
M107
G0 F3600 X95.354 Y71.166 Z0.3
;TYPE:SKIRT
G1 F1500 E0
G1 F1800 X96.673 Y69.855 E0.09278
G1 X101.492 Y66.693 E0.38034
G1 X102.775 Y66.097 E0.45091
G1 X105.052 Y65.708 E0.56616
G1 X107.67 Y66.1 E0.69823
G1 X110.119 Y67.479 E0.83845
G1 X111.429 Y68.974 E0.93762
G1 X112.357 Y70.314 E1.01894
G1 X113.783 Y72.009 E1.12945
G1 X115.432 Y73.604 E1.2439
G1 X117.124 Y74.936 E1.35134
G1 X119.125 Y76.203 E1.4695
G1 X121.234 Y77.255 E1.58708
G1 X123.217 Y78.002 E1.6928
G1 X125.557 Y78.617 E1.8135
G1 X127.756 Y78.954 E1.92449
G1 X130.04 Y79.072 E2.0386
G1 X145.626 Y79.072 E2.81618
G1 X150.887 Y78.789 E3.07904
G1 X155.213 Y79.072 E3.29532
G1 X169.96 Y79.072 E4.03105
G1 X172.244 Y78.954 E4.14515
G1 X174.443 Y78.617 E4.25614
G1 X176.783 Y78.002 E4.37685
G1 X178.766 Y77.255 E4.48257
G1 X180.875 Y76.203 E4.60015
G1 X182.876 Y74.936 E4.71831
G1 X184.568 Y73.604 E4.82575
G1 X186.217 Y72.009 E4.9402
G1 X187.621 Y70.34 E5.04901
G1 X188.755 Y68.673 E5.1496
G1 X190.23 Y67.24 E5.2522
G1 X192.199 Y66.192 E5.36348
G1 X193.172 Y65.931 E5.41374
G1 X194.846 Y65.75 E5.49774
G1 X196.906 Y66.01 E5.60133
G1 X198.662 Y66.736 E5.69613
G1 X203.358 Y69.865 E5.97766
G1 X204.825 Y71.377 E6.08276
G1 X205.788 Y73.213 E6.1862
G1 X206.108 Y74.263 E6.24096
G1 X206.276 Y76.016 E6.32882
G1 X206.019 Y78.23 E6.44002
G1 X205.014 Y80.248 E6.55249
G1 X204.152 Y81.552 E6.63047
G1 X201.531 Y84.759 E6.83711
G1 X198.504 Y87.864 E7.05345
G1 X195.624 Y90.287 E7.24122
G1 X193.645 Y91.657 E7.3613
G1 X194.044 Y92.141 E7.3926
G1 X194.977 Y93.989 E7.49588
G1 X195.16 Y94.819 E7.53828
G1 X196.342 Y96.87 E7.65638
G1 X198.098 Y98.42 E7.77324
G1 X204.482 Y105.731 E8.25747
G1 X209.246 Y112.959 E8.68936
G1 X213.184 Y121.06 E9.13874
G1 X215.732 Y128.565 E9.53416
G1 X217.06 Y135.134 E9.86852
G1 X238.241 Y135.198 E10.92525
G1 X239.589 Y135.413 E10.99335
G1 X241.366 Y136.227 E11.09086
G1 X242.202 Y136.773 E11.14068
G1 X243.686 Y138.306 E11.24713
G1 X244.777 Y140.349 E11.36267
G1 X245.062 Y141.818 E11.43733
G1 X245.386 Y147.537 E11.72311
G1 X245.22 Y149.124 E11.80272
G1 X244.901 Y149.777 E11.83897
G1 X244.783 Y150.844 E11.89253
G1 X243.501 Y160.155 E12.36144
G1 X241.022 Y170.754 E12.9045
G1 X237.787 Y180.459 E13.41487
G1 X233.97 Y189.19 E13.89027
G1 X233.703 Y189.763 E13.92181
G1 X233.1 Y190.887 E13.98545
G1 X228.385 Y199.287 E14.46603
G1 X222.858 Y207.352 E14.95381
G1 X222.234 Y208.166 E15.00498
G1 X216.298 Y215.258 E15.46639
G1 X208.457 Y223.008 E16.01641
G1 X202.391 Y227.957 E16.40699
G1 X201.827 Y228.906 E16.46206
G1 X200.28 Y230.217 E16.56323
G1 X197.868 Y231.814 E16.70755
G1 X195.176 Y233.134 E16.85713
G1 X194.553 Y233.34 E16.88987
G1 X194.25 Y233.472 E16.90636
G1 X192.777 Y234.049 E16.98528
G1 X190.209 Y234.227 E17.11371
G1 X188.477 Y233.714 E17.20383
G1 X186.946 Y233.049 E17.28711
G1 X185.2 Y231.671 E17.39808
G1 X184.134 Y229.944 E17.49933
G1 X183.497 Y228.553 E17.57566
G1 X183.329 Y227.4 E17.63379
G1 X182.868 Y225.738 E17.71984
G1 X182.848 Y225.3 E17.74171
G1 X173.792 Y210.086 E18.62503
G1 X168.395 Y211.922 E18.90944
G1 X158.692 Y213.838 E19.40287
G1 X149.84 Y214.351 E19.84524
G1 X141.032 Y213.705 E20.28586
G1 X132.628 Y211.989 E20.71378
G1 X126.361 Y209.849 E21.04417
G1 X117.934 Y224.001 E21.86591
G1 X118.159 Y226.428 E21.98752
G1 X117.891 Y228.572 E22.09531
G1 X116.928 Y230.63 E22.20867
G1 X115.718 Y232.027 E22.30088
G1 X114.706 Y232.925 E22.36838
G1 X112.611 Y233.947 E22.48467
G1 X110.585 Y234.251 E22.58688
G1 X108.682 Y234.094 E22.68214
G1 X107.493 Y233.666 E22.74519
G1 X106.174 Y233.627 E22.81102
G1 X104.39 Y232.958 E22.90608
G1 X101.844 Y231.643 E23.04904
G1 X99.394 Y229.962 E23.19728
G1 X97.964 Y228.672 E23.29336
G1 X96.846 Y226.609 E23.41043
G1 X96.719 Y226.201 E23.43174
G1 X94.469 Y224.395 E23.57569
G1 X86.836 Y216.898 E24.10946
G1 X80.364 Y209.151 E24.61308
G1 X75.188 Y201.723 E25.06477
G1 X74.656 Y200.923 E25.1127
G1 X74.212 Y200.178 E25.15597
G1 X69.695 Y192.334 E25.60755
G1 X65.076 Y182.6 E26.14509
G1 X64.732 Y181.777 E26.18959
G1 X61.531 Y173.371 E26.63834
G1 X61.073 Y172.109 E26.70532
G1 X58.112 Y162.121 E27.22506
G1 X55.669 Y150.899 E27.79804
G1 X55.002 Y149.724 E27.86545
G1 X54.526 Y147.576 E27.97521
G1 X54.733 Y144.405 E28.13375
G1 X54.591 Y143.349 E28.18691
G1 X54.819 Y140.895 E28.30987
G1 X55.971 Y138.502 E28.44237
G1 X57.598 Y136.837 E28.55851
G1 X59.594 Y135.672 E28.67381
G1 X61.848 Y135.13 E28.78947
G1 X76.619 Y135.129 E29.5264
G1 X76.813 Y134.992 E29.53825
G1 X77.936 Y134.379 E29.60208
G1 X79.76 Y133.905 E29.6961
G1 X80.951 Y133.78 E29.75585
G1 X82.864 Y134.082 E29.85247
G1 X83.834 Y134.387 E29.9032
G1 X84.993 Y128.715 E30.19202
G1 X87.958 Y120.143 E30.64454
G1 X91.835 Y112.402 E31.07647
G1 X96.736 Y105.129 E31.51402
G1 X102.808 Y98.276 E31.97081
G1 X104.423 Y96.863 E32.07787
G1 X105.644 Y94.739 E32.2001
G1 X105.853 Y93.97 E32.23986
G1 X106.358 Y92.677 E32.30911
G1 X106.838 Y92.026 E32.34946
G1 X104.689 Y90.549 E32.47956
G1 X101.13 Y87.514 E32.71291
G1 X98.231 Y84.488 E32.92198
G1 X95.547 Y81.125 E33.13665
G1 X94.571 Y79.592 E33.22731
G1 X93.859 Y77.62 E33.33191
G1 X93.662 Y75.098 E33.45812
G1 X94.311 Y72.967 E33.56926
G1 X95.354 Y71.166 E33.67309
G0 F3600 X95.672 Y71.414
G1 F1800 X96.927 Y70.166 E33.76139
G1 X101.66 Y67.056 E34.04393
G1 X102.896 Y66.482 E34.11192
G1 X105.054 Y66.113 E34.22115
G1 X107.538 Y66.485 E34.34646
G1 X109.863 Y67.794 E34.47957
G1 X111.1 Y69.202 E34.57308
G1 X112.038 Y70.557 E34.6553
G1 X113.486 Y72.277 E34.76747
G1 X115.168 Y73.905 E34.88425
G1 X116.897 Y75.266 E34.99403
G1 X118.93 Y76.553 E35.11407
G1 X121.069 Y77.62 E35.23333
G1 X123.1 Y78.385 E35.3416
G1 X125.471 Y79.008 E35.46391
G1 X127.714 Y79.352 E35.57712
G1 X130.038 Y79.472 E35.69322
G1 X145.63 Y79.472 E36.47111
G1 X150.861 Y79.188 E36.73247
G1 X155.202 Y79.472 E36.94951
G1 X169.962 Y79.472 E37.68588
G1 X172.286 Y79.352 E37.80198
G1 X174.529 Y79.008 E37.9152
G1 X176.9 Y78.385 E38.0375
G1 X178.931 Y77.62 E38.14578
G1 X181.07 Y76.553 E38.26503
G1 X183.103 Y75.266 E38.38508
G1 X184.832 Y73.905 E38.49485
G1 X186.514 Y72.277 E38.61164
G1 X187.94 Y70.582 E38.72215
G1 X189.063 Y68.932 E38.82172
G1 X190.469 Y67.566 E38.91952
G1 X192.345 Y66.567 E39.02556
G1 X193.215 Y66.329 E39.07056
G1 X194.843 Y66.153 E39.15226
G1 X196.802 Y66.4 E39.25076
G1 X198.474 Y67.091 E39.34102
G1 X203.1 Y70.174 E39.61837
G1 X204.498 Y71.615 E39.71854
G1 X205.415 Y73.363 E39.81702
G1 X205.714 Y74.344 E39.86818
G1 X205.874 Y76.013 E39.95183
G1 X205.63 Y78.114 E40.05736
G1 X204.68 Y80.027 E40.16392
G1 X203.818 Y81.331 E40.2419
G1 X201.221 Y84.506 E40.44654
G1 X198.246 Y87.558 E40.65918
G1 X195.396 Y89.958 E40.84507
G1 X193.059 Y91.575 E40.98685
G1 X193.708 Y92.362 E41.03774
G1 X194.596 Y94.122 E41.13609
G1 X194.782 Y94.966 E41.17921
G1 X196.027 Y97.126 E41.30359
G1 X197.833 Y98.72 E41.42377
G1 X204.148 Y105.951 E41.90273
G1 X208.886 Y113.134 E42.33203
G1 X212.805 Y121.189 E42.77894
G1 X215.353 Y128.694 E43.17435
G1 X216.733 Y135.533 E43.52243
G1 X238.178 Y135.593 E44.59233
G1 X239.47 Y135.799 E44.6576
G1 X241.199 Y136.591 E44.75248
G1 X241.947 Y137.084 E44.79717
G1 X243.359 Y138.543 E44.89847
G1 X244.395 Y140.483 E45.00819
G1 X244.669 Y141.894 E45.0799
G1 X244.988 Y147.495 E45.35979
G1 X244.829 Y149.012 E45.43589
G1 X244.51 Y149.666 E45.47219
G1 X244.387 Y150.789 E45.52855
G1 X243.105 Y160.1 E45.99746
G1 X240.643 Y170.628 E46.53688
G1 X237.42 Y180.299 E47.04545
G1 X233.607 Y189.021 E47.52036
G1 X233.35 Y189.574 E47.55079
G1 X232.751 Y190.691 E47.61402
G1 X228.055 Y199.061 E48.09283
G1 X222.54 Y207.109 E48.57958
G1 X221.927 Y207.909 E48.62986
G1 X215.991 Y215.001 E49.09126
G1 X208.204 Y222.698 E49.63751
G1 X202.083 Y227.691 E50.0316
G1 X201.518 Y228.644 E50.08688
G1 X200.059 Y229.883 E50.18237
G1 X197.647 Y231.48 E50.32669
G1 X195.051 Y232.754 E50.47096
G1 X194.412 Y232.965 E50.50454
G1 X194.104 Y233.1 E50.52131
G1 X192.689 Y233.654 E50.59713
G1 X190.255 Y233.823 E50.71885
G1 X188.591 Y233.33 E50.80544
G1 X187.152 Y232.702 E50.88377
G1 X185.502 Y231.4 E50.98863
G1 X184.498 Y229.777 E51.08384
G1 X183.884 Y228.437 E51.15738
G1 X183.722 Y227.321 E51.21364
G1 X183.266 Y225.678 E51.29871
G1 X183.244 Y225.182 E51.32348
G1 X173.97 Y209.603 E52.22801
G1 X168.266 Y211.543 E52.52859
G1 X158.669 Y213.439 E53.01664
G1 X149.869 Y213.952 E53.45642
G1 X141.112 Y213.313 E53.89447
G1 X132.757 Y211.61 E54.31987
G1 X126.183 Y209.365 E54.66645
G1 X117.524 Y223.907 E55.51083
G1 X117.757 Y226.42 E55.63674
G1 X117.502 Y228.46 E55.73931
G1 X116.589 Y230.41 E55.84673
G1 X115.452 Y231.728 E55.93357
G1 X114.482 Y232.589 E55.99828
G1 X112.491 Y233.56 E56.10879
G1 X110.572 Y233.848 E56.20561
G1 X108.764 Y233.699 E56.29611
G1 X107.566 Y233.268 E56.35963
G1 X106.253 Y233.229 E56.42517
G1 X104.53 Y232.583 E56.51697
G1 X102.07 Y231.313 E56.65509
G1 X99.662 Y229.665 E56.80067
G1 X98.284 Y228.422 E56.89325
G1 X97.198 Y226.418 E57.00697
G1 X97.068 Y225.968 E57.03034
G1 X94.719 Y224.083 E57.1806
G1 X87.143 Y216.642 E57.71038
G1 X80.692 Y208.922 E58.2123
G1 X75.521 Y201.501 E58.66356
G1 X75 Y200.718 E58.71048
G1 X74.559 Y199.978 E58.75346
G1 X70.042 Y192.134 E59.20504
G1 X65.445 Y182.446 E59.74003
G1 X65.106 Y181.635 E59.78389
G1 X61.907 Y173.235 E60.23233
G1 X61.457 Y171.995 E60.29814
G1 X58.496 Y162.007 E60.81788
G1 X56.047 Y150.755 E61.39238
G1 X55.38 Y149.58 E61.45979
G1 X54.929 Y147.543 E61.56388
G1 X55.135 Y144.392 E61.72142
G1 X54.993 Y143.341 E61.77433
G1 X55.21 Y141.004 E61.89142
G1 X56.302 Y138.736 E62.01701
G1 X57.848 Y137.154 E62.12736
G1 X59.744 Y136.047 E62.2369
G1 X61.895 Y135.53 E62.34727
G1 X76.749 Y135.529 E63.08834
G1 X77.005 Y135.343 E63.10412
G1 X78.084 Y134.754 E63.16545
G1 X79.802 Y134.303 E63.25407
G1 X80.942 Y134.183 E63.31126
G1 X82.744 Y134.464 E63.40225
G1 X84.137 Y134.902 E63.4751
G1 X85.371 Y128.846 E63.78344
G1 X88.316 Y120.322 E64.23337
G1 X92.167 Y112.626 E64.66271
G1 X97.068 Y105.353 E65.10026
G1 X103.071 Y98.577 E65.5519
G1 X104.737 Y97.119 E65.66235
G1 X106.016 Y94.894 E65.79039
G1 X106.226 Y94.116 E65.83059
G1 X106.713 Y92.869 E65.89738
G1 X107.405 Y91.93 E65.95557
G1 X104.916 Y90.219 E66.10626
G1 X101.419 Y87.237 E66.33555
G1 X98.544 Y84.238 E66.54281
G1 X95.86 Y80.875 E66.75748
G1 X94.932 Y79.414 E66.84383
G1 X94.254 Y77.536 E66.94344
G1 X94.067 Y75.143 E67.06319
G1 X94.682 Y73.124 E67.16849
G1 X95.672 Y71.414 E67.26707
G0 F3600 X95.99 Y71.662
G1 F1800 X97.182 Y70.477 E67.35093
G1 X101.828 Y67.419 E67.62842
G1 X103.017 Y66.867 E67.69382
G1 X105.056 Y66.518 E67.79702
G1 X107.406 Y66.87 E67.91557
G1 X109.609 Y68.11 E68.0417
G1 X110.771 Y69.43 E68.12943
G1 X111.716 Y70.794 E68.21222
G1 X113.193 Y72.55 E68.3267
G1 X114.904 Y74.206 E68.44549
G1 X116.67 Y75.596 E68.55762
G1 X118.735 Y76.903 E68.67954
G1 X120.904 Y77.985 E68.80047
G1 X122.983 Y78.768 E68.9113
G1 X125.385 Y79.399 E69.03521
G1 X127.672 Y79.75 E69.15064
G1 X130.036 Y79.872 E69.26874
G1 X145.634 Y79.872 E70.04693
G1 X150.835 Y79.587 E70.30679
G1 X155.191 Y79.872 E70.52458
G1 X169.964 Y79.872 E71.26161
G1 X172.328 Y79.75 E71.37971
G1 X174.615 Y79.399 E71.49514
G1 X177.017 Y78.768 E71.61904
G1 X179.096 Y77.985 E71.72988
G1 X181.265 Y76.903 E71.85081
G1 X183.33 Y75.596 E71.97273
G1 X185.096 Y74.206 E72.08485
G1 X186.807 Y72.55 E72.20365
G1 X188.263 Y70.819 E72.3165
G1 X189.371 Y69.191 E72.41475
G1 X190.708 Y67.892 E72.50775
G1 X192.494 Y66.941 E72.6087
G1 X193.258 Y66.727 E72.64828
G1 X194.84 Y66.556 E72.72766
G1 X196.698 Y66.79 E72.82109
G1 X198.285 Y67.446 E72.90677
G1 X202.842 Y70.483 E73.17998
G1 X204.171 Y71.853 E73.2752
G1 X205.042 Y73.513 E73.36873
G1 X205.32 Y74.425 E73.4163
G1 X205.472 Y76.01 E73.49574
G1 X205.241 Y77.997 E73.59554
G1 X204.346 Y79.806 E73.69623
G1 X203.484 Y81.11 E73.77421
G1 X200.934 Y84.227 E73.97513
G1 X197.988 Y87.252 E74.18579
G1 X195.138 Y89.652 E74.37168
G1 X192.474 Y91.494 E74.53326
G1 X193.372 Y92.583 E74.60368
G1 X194.215 Y94.255 E74.6971
G1 X194.404 Y95.113 E74.74094
G1 X195.712 Y97.382 E74.8716
G1 X197.568 Y99.02 E74.9951
G1 X203.814 Y106.171 E75.46879
G1 X208.526 Y113.309 E75.8955
G1 X212.426 Y121.318 E76.33993
G1 X214.974 Y128.823 E76.73535
G1 X216.405 Y135.932 E77.09713
G1 X238.115 Y135.988 E78.18025
G1 X239.351 Y136.185 E78.24269
G1 X241.032 Y136.955 E78.33494
G1 X241.692 Y137.396 E78.37454
G1 X243.032 Y138.78 E78.47065
G1 X244.013 Y140.617 E78.57455
G1 X244.276 Y141.97 E78.64331
G1 X244.59 Y147.453 E78.91731
G1 X244.438 Y148.9 E78.9899
G1 X244.12 Y149.553 E79.02613
G1 X243.991 Y150.734 E79.0854
G1 X242.709 Y160.045 E79.55431
G1 X240.264 Y170.502 E80.09008
G1 X237.053 Y180.139 E80.59686
G1 X233.244 Y188.852 E81.07128
G1 X232.987 Y189.405 E81.1017
G1 X232.402 Y190.495 E81.16342
G1 X227.725 Y198.835 E81.64046
G1 X222.222 Y206.866 E82.12617
G1 X221.62 Y207.652 E82.17556
G1 X215.684 Y214.744 E82.63697
G1 X207.951 Y222.388 E83.17944
G1 X201.776 Y227.425 E83.57701
G1 X201.208 Y228.382 E83.63253
G1 X199.838 Y229.549 E83.72231
G1 X197.426 Y231.146 E83.86664
G1 X194.926 Y232.374 E84.0056
G1 X194.266 Y232.592 E84.04027
G1 X193.958 Y232.728 E84.05707
G1 X192.601 Y233.259 E84.12977
G1 X190.3 Y233.419 E84.24484
G1 X188.751 Y232.963 E84.3254
G1 X187.359 Y232.355 E84.40119
G1 X185.805 Y231.13 E84.49991
G1 X184.862 Y229.61 E84.58915
G1 X184.272 Y228.322 E84.65983
G1 X184.115 Y227.243 E84.71423
G1 X183.664 Y225.618 E84.79836
G1 X183.639 Y225.063 E84.82608
G1 X174.148 Y209.119 E85.7518
G1 X168.137 Y211.164 E86.06857
G1 X158.646 Y213.04 E86.55123
G1 X149.898 Y213.553 E86.98842
G1 X141.192 Y212.921 E87.42391
G1 X132.886 Y211.231 E87.84679
G1 X126.005 Y208.881 E88.20955
G1 X117.114 Y223.813 E89.07657
G1 X117.355 Y226.412 E89.20679
G1 X117.113 Y228.348 E89.30413
G1 X116.25 Y230.191 E89.40566
G1 X115.187 Y231.429 E89.48707
G1 X114.257 Y232.254 E89.54909
G1 X112.374 Y233.173 E89.65363
G1 X110.559 Y233.445 E89.74519
G1 X108.846 Y233.304 E89.83094
G1 X107.639 Y232.87 E89.89493
G1 X106.332 Y232.831 E89.96017
G1 X104.67 Y232.208 E90.04872
G1 X102.296 Y230.983 E90.182
G1 X99.93 Y229.368 E90.32491
G1 X98.604 Y228.172 E90.414
G1 X97.55 Y226.227 E90.52437
G1 X97.421 Y225.739 E90.54955
G1 X94.969 Y223.771 E90.70641
G1 X87.45 Y216.385 E91.23225
G1 X81.02 Y208.693 E91.73243
G1 X75.854 Y201.28 E92.18321
G1 X75.344 Y200.513 E92.22916
G1 X74.906 Y199.778 E92.27185
G1 X70.389 Y191.934 E92.72343
G1 X65.814 Y182.292 E93.25588
G1 X65.48 Y181.493 E93.29908
G1 X62.283 Y173.099 E93.74721
G1 X61.841 Y171.881 E93.81185
G1 X58.88 Y161.893 E94.33159
G1 X56.455 Y150.779 E94.89912
G1 X56.432 Y150.622 E94.90703
G1 X55.758 Y149.435 E94.97513
G1 X55.332 Y147.51 E95.0735
G1 X55.536 Y144.38 E95.22998
G1 X55.395 Y143.333 E95.28269
G1 X55.601 Y141.113 E95.39392
G1 X56.634 Y138.968 E95.5127
G1 X58.095 Y137.472 E95.61702
G1 X59.894 Y136.422 E95.72094
G1 X61.942 Y135.93 E95.82603
G1 X76.88 Y135.929 E96.57129
G1 X77.197 Y135.694 E96.59097
G1 X78.231 Y135.129 E96.64976
G1 X79.844 Y134.701 E96.73302
G1 X80.934 Y134.586 E96.7877
G1 X82.624 Y134.846 E96.87301
G1 X83.593 Y135.151 E96.92369
G1 X83.827 Y135.251 E96.93638
G1 X84.436 Y135.437 E96.96815
G1 X85.749 Y128.976 E97.29708
G1 X88.674 Y120.501 E97.74437
G1 X92.499 Y112.85 E98.17113
G1 X97.4 Y105.577 E98.60867
