;FLAVOR:Marlin
;TIME:1420
;Filament used: 0.745744m
;Layer height: 0.1
;MINX:92.368
;MINY:110.2
;MINZ:0.3
;MAXX:122.968
;MAXY:189.8
;MAXZ:9
;TARGET_MACHINE.NAME:Hellbot Magna 2 300
;Generated with Cura_SteamEngine 5.10.1
M140 S60
M105
M190 S60
M104 S200
M105
M109 S200
G28 ;Home
G1 Z15.0 F6000 ;Move the platform down 15mm
;Prime the extruder
G92 E0
G1 F200 E3
G92 E0
M82 ;absolute extrusion mode
G92 E0
G92 E0
G1 F1500 E-6.5
;LAYER_COUNT:88
;LAYER:0
M107
G0 F3600 X94.558 Y112.552 Z0.3
;TYPE:SKIRT
G1 F1500 E0
G1 F1800 X95.911 Y111.46 E0.08674
G1 X97.89 Y110.474 E0.19705
G1 X99.414 Y110.252 E0.27389
G1 X113.516 Y110.2 E0.97744
G1 X115.768 Y110.738 E1.09296
G1 X118.245 Y112.002 E1.2317
G1 X120.416 Y114.171 E1.3848
G1 X121.68 Y116.65 E1.52363
G1 X122.218 Y118.898 E1.63895
G1 X122.218 Y121.272 E1.75739
G1 X122.694 Y122.22 E1.81031
G1 X122.928 Y123.917 E1.89578
G1 X122.968 Y143.622 E2.87886
G1 X122.546 Y145.679 E2.98363
G1 X121.551 Y147.45 E3.08497
G1 X120.777 Y148.451 E3.1481
G1 X119.423 Y149.538 E3.23473
G1 X117.968 Y150.263 E3.31583
G1 X117.968 Y182.622 E4.93023
G1 X117.546 Y184.679 E5.03499
G1 X116.551 Y186.45 E5.13633
G1 X115.778 Y187.448 E5.19931
G1 X114.425 Y188.54 E5.28606
G1 X112.445 Y189.526 E5.39641
G1 X110.866 Y189.752 E5.47599
G1 X99.484 Y189.8 E6.04384
G1 X97.452 Y189.36 E6.14757
G1 X95.656 Y188.342 E6.25057
G1 X94.714 Y187.607 E6.31018
G1 X93.628 Y186.257 E6.39662
G1 X92.642 Y184.279 E6.50688
G1 X92.42 Y182.754 E6.58376
G1 X92.368 Y117.378 E9.84539
G1 X92.79 Y115.321 E9.95015
G1 X93.785 Y113.55 E10.05149
G1 X94.558 Y112.552 E10.11447
G0 F3600 X94.846 Y112.833
G1 F1800 X96.128 Y111.799 E10.19664
G1 X98.01 Y110.861 E10.30155
G1 X99.472 Y110.648 E10.37526
G1 X113.47 Y110.6 E11.07363
G1 X115.629 Y111.116 E11.18438
G1 X118.006 Y112.329 E11.31751
G1 X120.089 Y114.41 E11.46441
G1 X121.302 Y116.789 E11.59764
G1 X121.818 Y118.945 E11.70824
G1 X121.818 Y121.365 E11.82897
G1 X122.307 Y122.339 E11.88334
G1 X122.528 Y123.918 E11.96289
G1 X122.568 Y143.581 E12.94388
G1 X122.166 Y145.538 E13.04356
G1 X121.235 Y147.205 E13.13881
G1 X120.491 Y148.167 E13.19949
G1 X119.204 Y149.201 E13.28185
G1 X117.568 Y150.015 E13.37302
G1 X117.568 Y182.581 E14.99774
G1 X117.166 Y184.538 E15.09741
G1 X116.235 Y186.205 E15.19267
G1 X115.49 Y187.167 E15.25338
G1 X114.208 Y188.201 E15.33555
G1 X112.326 Y189.139 E15.44046
G1 X110.864 Y189.352 E15.51417
G1 X99.527 Y189.4 E16.07978
G1 X97.594 Y188.981 E16.17845
G1 X95.902 Y188.027 E16.27536
G1 X94.999 Y187.322 E16.33252
G1 X93.967 Y186.039 E16.41466
G1 X93.029 Y184.158 E16.51953
G1 X92.816 Y182.696 E16.59324
G1 X92.768 Y117.419 E19.84992
G1 X93.17 Y115.462 E19.94959
G1 X94.101 Y113.795 E20.04485
G1 X94.846 Y112.833 E20.10556
G0 F3600 X95.134 Y113.114
G1 F1800 X96.345 Y112.138 E20.18315
G1 X98.13 Y111.248 E20.28266
G1 X99.53 Y111.044 E20.35325
G1 X113.424 Y111 E21.04642
G1 X115.49 Y111.494 E21.1524
G1 X117.767 Y112.656 E21.27994
G1 X119.762 Y114.649 E21.42063
G1 X120.924 Y116.928 E21.54825
G1 X121.418 Y118.992 E21.65414
G1 X121.418 Y121.458 E21.77716
G1 X121.92 Y122.458 E21.83299
G1 X122.128 Y123.919 E21.90661
G1 X122.168 Y143.539 E22.88546
G1 X121.786 Y145.397 E22.9801
G1 X120.919 Y146.96 E23.06927
G1 X120.204 Y147.885 E23.12759
G1 X118.987 Y148.862 E23.20546
G1 X117.315 Y149.694 E23.29863
G1 X117.168 Y149.738 E23.30628
G1 X117.168 Y182.539 E24.94273
G1 X116.786 Y184.397 E25.03737
G1 X115.919 Y185.96 E25.12654
G1 X115.202 Y186.886 E25.18497
G1 X113.991 Y187.862 E25.26256
G1 X112.206 Y188.752 E25.36207
G1 X110.806 Y188.956 E25.43266
G1 X99.57 Y189 E25.99323
G1 X97.737 Y188.603 E26.0868
G1 X96.099 Y187.679 E26.18062
G1 X95.285 Y187.038 E26.23231
G1 X94.304 Y185.819 E26.31038
G1 X93.416 Y184.038 E26.40966
G1 X93.212 Y182.638 E26.48025
G1 X93.168 Y117.461 E29.73194
G1 X93.55 Y115.603 E29.82658
G1 X94.417 Y114.04 E29.91575
G1 X95.134 Y113.114 E29.97418
G0 F3600 X95.419 Y113.398
G1 F1800 X96.565 Y112.475 E30.04759
G1 X98.25 Y111.635 E30.14152
G1 X99.588 Y111.44 E30.20898
G1 X113.378 Y111.4 E30.89697
G1 X115.351 Y111.872 E30.99818
G1 X117.528 Y112.983 E31.12012
G1 X119.435 Y114.888 E31.2546
G1 X120.546 Y117.067 E31.37662
G1 X121.018 Y119.039 E31.47778
G1 X121.018 Y121.551 E31.60311
G1 X121.533 Y122.577 E31.66038
G1 X121.728 Y123.92 E31.72809
G1 X121.768 Y143.497 E32.70479
G1 X121.406 Y145.257 E32.79443
G1 X120.569 Y146.766 E32.88052
G1 X119.919 Y147.6 E32.93328
G1 X118.768 Y148.525 E33.00695
G1 X117.137 Y149.336 E33.09782
G1 X116.768 Y149.407 E33.11657
G1 X116.768 Y182.497 E34.76744
G1 X116.406 Y184.257 E34.85708
G1 X115.569 Y185.766 E34.94317
G1 X114.917 Y186.602 E34.99606
G1 X113.771 Y187.525 E35.06948
G1 X112.086 Y188.365 E35.16341
G1 X110.748 Y188.56 E35.23087
G1 X99.613 Y188.6 E35.7864
G1 X97.881 Y188.225 E35.87481
G1 X96.347 Y187.365 E35.96255
G1 X95.567 Y186.75 E36.0121
G1 X94.643 Y185.603 E36.08558
G1 X93.803 Y183.918 E36.17952
G1 X93.608 Y182.58 E36.24697
G1 X93.568 Y117.503 E39.49368
G1 X93.93 Y115.743 E39.58332
G1 X94.767 Y114.234 E39.66941
G1 X95.419 Y113.398 E39.72231
G0 F3600 X95.703 Y113.683
G1 F1800 X96.785 Y112.812 E39.79161
G1 X98.37 Y112.022 E39.87996
G1 X99.646 Y111.836 E39.94429
G1 X113.332 Y111.8 E40.62709
G1 X115.212 Y112.25 E40.72354
G1 X117.289 Y113.31 E40.83987
G1 X119.108 Y115.127 E40.96814
G1 X120.168 Y117.206 E41.08457
G1 X120.618 Y119.086 E41.18101
G1 X120.618 Y121.646 E41.30873
G1 X121.146 Y122.699 E41.3675
G1 X121.332 Y123.978 E41.43198
G1 X121.368 Y143.455 E42.40369
G1 X121.026 Y145.117 E42.48835
G1 X120.219 Y146.572 E42.57135
G1 X119.633 Y147.317 E42.61864
G1 X118.551 Y148.186 E42.68788
G1 X116.959 Y148.978 E42.77659
G1 X116.368 Y149.057 E42.80634
G1 X116.368 Y182.455 E44.47257
G1 X116.026 Y184.117 E44.55722
G1 X115.219 Y185.572 E44.64023
G1 X114.633 Y186.317 E44.68752
G1 X113.551 Y187.188 E44.75682
G1 X111.966 Y187.978 E44.84517
G1 X110.69 Y188.164 E44.90951
G1 X99.656 Y188.2 E45.46
G1 X98.023 Y187.846 E45.54336
G1 X96.595 Y187.051 E45.6249
G1 X95.851 Y186.465 E45.67215
G1 X94.98 Y185.383 E45.74145
G1 X94.19 Y183.798 E45.8298
G1 X94.004 Y182.522 E45.89413
G1 X93.968 Y117.545 E49.13585
G1 X94.31 Y115.883 E49.22051
G1 X95.117 Y114.428 E49.30351
G1 X95.703 Y113.683 E49.3508
G0 F3600 X95.988 Y113.968
G1 F1800 X97.003 Y113.151 E49.41581
G1 X98.491 Y112.409 E49.49876
G1 X99.704 Y112.232 E49.55992
G1 X113.285 Y112.2 E50.23748
G1 X115.073 Y112.628 E50.3292
G1 X117.05 Y113.637 E50.43994
G1 X118.781 Y115.366 E50.562
G1 X119.79 Y117.345 E50.67283
G1 X120.218 Y119.133 E50.76455
G1 X120.218 Y121.741 E50.89466
G1 X120.759 Y122.821 E50.95493
G1 X120.936 Y124.036 E51.01618
G1 X120.968 Y143.413 E51.98291
G1 X120.646 Y144.977 E52.06257
G1 X119.869 Y146.378 E52.1425
G1 X119.348 Y147.032 E52.18421
G1 X118.332 Y147.849 E52.24926
G1 X116.84 Y148.591 E52.33239
G1 X115.968 Y148.708 E52.37628
G1 X115.968 Y182.413 E54.05783
G1 X115.646 Y183.977 E54.1375
G1 X114.869 Y185.378 E54.21742
G1 X114.348 Y186.032 E54.25914
G1 X113.333 Y186.849 E54.32415
G1 X111.845 Y187.591 E54.4071
G1 X110.632 Y187.768 E54.46826
G1 X99.699 Y187.8 E55.01371
G1 X98.168 Y187.468 E55.09187
G1 X96.79 Y186.701 E55.17055
G1 X96.136 Y186.18 E55.21226
G1 X95.319 Y185.165 E55.27727
G1 X94.577 Y183.677 E55.36022
G1 X94.4 Y182.464 E55.42138
G1 X94.368 Y117.587 E58.65811
G1 X94.69 Y116.023 E58.73777
G1 X95.467 Y114.622 E58.8177
G1 X95.988 Y113.968 E58.85942
G0 F3600 X96.272 Y114.254
G1 F1800 X97.223 Y113.488 E58.92034
G1 X98.611 Y112.796 E58.99771
G1 X99.762 Y112.628 E59.05575
G1 X113.238 Y112.6 E59.72807
G1 X114.934 Y113.006 E59.81507
G1 X116.811 Y113.964 E59.92021
G1 X118.454 Y115.605 E60.03606
G1 X119.412 Y117.484 E60.14129
G1 X119.818 Y119.18 E60.22829
G1 X119.818 Y121.836 E60.3608
G1 X120.372 Y122.943 E60.42256
G1 X120.54 Y124.094 E60.48059
G1 X120.568 Y143.371 E61.44232
G1 X120.266 Y144.838 E61.51705
G1 X119.556 Y146.129 E61.59055
G1 X119.064 Y146.746 E61.62992
G1 X118.113 Y147.512 E61.69085
G1 X116.72 Y148.204 E61.76845
G1 X115.568 Y148.358 E61.82643
G1 X115.568 Y182.371 E63.52335
G1 X115.266 Y183.838 E63.59807
G1 X114.556 Y185.129 E63.67158
G1 X114.064 Y185.746 E63.71095
G1 X113.113 Y186.512 E63.77187
G1 X111.725 Y187.204 E63.84925
G1 X110.574 Y187.372 E63.90728
G1 X99.742 Y187.4 E64.44769
G1 X98.309 Y187.089 E64.52085
G1 X97.039 Y186.388 E64.59322
G1 X96.422 Y185.896 E64.63259
G1 X95.656 Y184.945 E64.69351
G1 X94.964 Y183.557 E64.77089
G1 X94.796 Y182.406 E64.82892
G1 X94.768 Y117.629 E68.06066
G1 X95.07 Y116.162 E68.13538
G1 X95.78 Y114.871 E68.20889
G1 X96.272 Y114.254 E68.24826
G0 F3600 X96.558 Y114.537
G1 F1800 X97.439 Y113.827 E68.30471
G1 X98.731 Y113.183 E68.37673
G1 X99.82 Y113.024 E68.43164
G1 X113.191 Y113 E69.09872
G1 X114.795 Y113.384 E69.18101
G1 X116.572 Y114.291 E69.28054
G1 X118.127 Y115.844 E69.39018
G1 X119.034 Y117.623 E69.48981
G1 X119.418 Y119.227 E69.57209
G1 X119.418 Y121.95 E69.70794
G1 X119.482 Y122.053 E69.71399
G1 X119.985 Y123.063 E69.77029
G1 X120.144 Y124.152 E69.82519
G1 X120.168 Y143.329 E70.78194
G1 X119.886 Y144.7 E70.85177
G1 X119.243 Y145.88 E70.91881
G1 X118.778 Y146.463 E70.95602
G1 X117.897 Y147.173 E71.01247
G1 X116.601 Y147.817 E71.08467
G1 X115.168 Y148.008 E71.15679
G1 X115.168 Y182.329 E72.86907
G1 X114.886 Y183.7 E72.93891
G1 X114.243 Y184.88 E73.00595
G1 X113.778 Y185.463 E73.04315
G1 X112.897 Y186.173 E73.0996
G1 X111.605 Y186.817 E73.17163
G1 X110.516 Y186.976 E73.22653
G1 X99.785 Y187 E73.76191
G1 X98.451 Y186.71 E73.83001
G1 X97.288 Y186.075 E73.89612
G1 X96.705 Y185.61 E73.93333
G1 X95.995 Y184.729 E73.98978
G1 X95.351 Y183.437 E74.0618
G1 X95.192 Y182.348 E74.1167
G1 X95.168 Y117.671 E77.34345
G1 X95.45 Y116.3 E77.41328
G1 X96.093 Y115.12 E77.48033
G1 X96.558 Y114.537 E77.51753
G0 F3600 X96.842 Y114.822
G1 F1800 X97.659 Y114.164 E77.56987
G1 X98.851 Y113.57 E77.63631
G1 X99.878 Y113.42 E77.68809
G1 X113.144 Y113.4 E78.34994
G1 X114.656 Y113.762 E78.4275
G1 X116.333 Y114.618 E78.52144
G1 X117.8 Y116.083 E78.62487
G1 X118.656 Y117.762 E78.7189
G1 X119.018 Y119.274 E78.79646
G1 X119.018 Y122.07 E78.93596
G1 X119.124 Y122.231 E78.94557
G1 X119.598 Y123.183 E78.99863
G1 X119.748 Y124.21 E79.05041
G1 X119.768 Y143.287 E80.00217
G1 X119.506 Y144.562 E80.06711
G1 X118.93 Y145.631 E80.12769
G1 X118.494 Y146.178 E80.16259
G1 X117.677 Y146.836 E80.21492
G1 X116.482 Y147.43 E80.2815
G1 X115.289 Y147.592 E80.34156
G1 X114.768 Y147.594 E80.36756
G1 X114.768 Y182.287 E82.0984
G1 X114.506 Y183.562 E82.16334
G1 X113.93 Y184.631 E82.22392
G1 X113.494 Y185.178 E82.25882
G1 X112.677 Y185.836 E82.31115
G1 X111.485 Y186.43 E82.3776
G1 X110.458 Y186.58 E82.42938
G1 X99.828 Y186.6 E82.95971
G1 X98.592 Y186.331 E83.02282
G1 X97.537 Y185.762 E83.08262
G1 X96.99 Y185.326 E83.11752
G1 X96.332 Y184.509 E83.16986
G1 X95.738 Y183.317 E83.2363
G1 X95.588 Y182.29 E83.28808
G1 X95.568 Y117.713 E86.50984
G1 X95.83 Y116.438 E86.57478
G1 X96.406 Y115.369 E86.63536
G1 X96.842 Y114.822 E86.67026
G0 F3600 X97.124 Y115.109
G1 F1800 X97.879 Y114.501 E86.71862
G1 X98.971 Y113.957 E86.77949
G1 X99.936 Y113.816 E86.82814
G1 X113.097 Y113.8 E87.48475
G1 X114.517 Y114.14 E87.5576
G1 X116.094 Y114.945 E87.64593
G1 X117.473 Y116.322 E87.74316
G1 X118.278 Y117.901 E87.83158
G1 X118.618 Y119.321 E87.90443
G1 X118.618 Y122.192 E88.04766
G1 X118.766 Y122.409 E88.06076
G1 X119.211 Y123.303 E88.11059
G1 X119.352 Y124.268 E88.15924
G1 X119.368 Y143.246 E89.10606
G1 X119.126 Y144.424 E89.16606
G1 X118.578 Y145.441 E89.22369
G1 X118.212 Y145.891 E89.25263
G1 X117.457 Y146.499 E89.30099
G1 X116.363 Y147.043 E89.36195
G1 X115.288 Y147.192 E89.41609
G1 X114.368 Y147.195 E89.46199
G1 X114.368 Y182.246 E91.21069
G1 X114.126 Y183.424 E91.27069
G1 X113.578 Y184.441 E91.32833
G1 X113.212 Y184.891 E91.35727
G1 X112.457 Y185.499 E91.40563
G1 X111.365 Y186.043 E91.46649
G1 X110.4 Y186.184 E91.51515
G1 X99.871 Y186.2 E92.04044
G1 X98.732 Y185.952 E92.0986
G1 X97.727 Y185.41 E92.15557
G1 X97.277 Y185.044 E92.18451
G1 X96.669 Y184.289 E92.23287
G1 X96.125 Y183.197 E92.29373
G1 X95.984 Y182.232 E92.34239
G1 X95.968 Y117.754 E95.55921
G1 X96.21 Y116.576 E95.61921
G1 X96.758 Y115.559 E95.67684
G1 X97.124 Y115.109 E95.70578
G0 F3600 X97.375 Y115.421
G1 F1800 X98.099 Y114.838 E95.75216
G1 X99.091 Y114.344 E95.80745
G1 X99.994 Y114.212 E95.85298
G1 X113.05 Y114.2 E96.50434
G1 X114.378 Y114.518 E96.57247
G1 X115.855 Y115.272 E96.6552
G1 X117.146 Y116.561 E96.74622
G1 X117.9 Y118.04 E96.82904
G1 X118.218 Y119.368 E96.89717
G1 X118.218 Y122.32 E97.04445
G1 X118.408 Y122.587 E97.0608
G1 X118.824 Y123.423 E97.10738
G1 X118.956 Y124.326 E97.15291
G1 X118.968 Y143.205 E98.09479
G1 X118.746 Y144.286 E98.14985
G1 X118.263 Y145.194 E98.20116
G1 X117.961 Y145.579 E98.22557
G1 X117.237 Y146.162 E98.27194
G1 X116.244 Y146.656 E98.32728
G1 X115.286 Y146.792 E98.37555
G1 X113.968 Y146.797 E98.44131
G1 X113.968 Y182.205 E100.20782
G1 X113.746 Y183.286 E100.26288
G1 X113.263 Y184.194 E100.31419
G1 X112.961 Y184.579 E100.3386
G1 X112.237 Y185.162 E100.38497
G1 X111.245 Y185.656 E100.44026
G1 X110.342 Y185.788 E100.48579
G1 X99.914 Y185.8 E101.00605
G1 X98.872 Y185.573 E101.05925
G1 X97.974 Y185.095 E101.11001
G1 X97.589 Y184.793 E101.13442
G1 X97.006 Y184.069 E101.18079
G1 X96.512 Y183.077 E101.23608
G1 X96.38 Y182.174 E101.28161
G1 X96.368 Y117.795 E104.49349
G1 X96.59 Y116.714 E104.54855
G1 X97.073 Y115.806 E104.59986
G1 X97.375 Y115.421 E104.62427
G0 F3600 X97.626 Y115.733
G1 F1800 X98.319 Y115.175 E104.66866
G1 X99.211 Y114.731 E104.71837
G1 X100.052 Y114.608 E104.76077
G1 X113.003 Y114.6 E105.4069
G1 X114.239 Y114.896 E105.47031
G1 X115.616 Y115.599 E105.54744
G1 X116.819 Y116.8 E105.63225
G1 X117.522 Y118.179 E105.70947
G1 X117.818 Y119.415 E105.77288
G1 X117.818 Y122.453 E105.92445
G1 X118.05 Y122.765 E105.94385
G1 X118.437 Y123.543 E105.9872
G1 X118.56 Y124.384 E106.0296
G1 X118.568 Y143.164 E106.96654
G1 X118.366 Y144.15 E107.01675
G1 X117.942 Y144.955 E107.06215
G1 X117.71 Y145.267 E107.08154
G1 X117.017 Y145.825 E107.12593
G1 X116.125 Y146.269 E107.17564
G1 X115.284 Y146.392 E107.21805
G1 X113.568 Y146.399 E107.30366
G1 X113.568 Y182.164 E109.08798
G1 X113.366 Y183.15 E109.13819
G1 X112.942 Y183.955 E109.18359
G1 X112.71 Y184.267 E109.20298
G1 X112.017 Y184.825 E109.24737
G1 X111.125 Y185.269 E109.29708
G1 X110.284 Y185.392 E109.33949
G1 X99.957 Y185.4 E109.8547
G1 X99.01 Y185.194 E109.90305
G1 X98.213 Y184.774 E109.948
G1 X97.901 Y184.542 E109.9674
G1 X97.343 Y183.849 E110.01179
G1 X96.899 Y182.957 E110.0615
G1 X96.776 Y182.116 E110.1039
G1 X96.768 Y117.836 E113.31084
G1 X96.97 Y116.85 E113.36106
G1 X97.394 Y116.045 E113.40645
G1 X97.626 Y115.733 E113.42585
G0 F3600 X97.917 Y116.012
G1 F1800 X98.535 Y115.514 E113.46544
G1 X99.331 Y115.118 E113.5098
G1 X100.11 Y115.004 E113.54908
G1 X112.956 Y115 E114.18997
G1 X114.1 Y115.274 E114.24865
G1 X115.377 Y115.926 E114.32019
G1 X116.492 Y117.039 E114.39879
G1 X117.144 Y118.318 E114.47041
G1 X117.418 Y119.462 E114.5291
G1 X117.418 Y122.589 E114.6851
G1 X117.692 Y122.943 E114.70744
G1 X118.05 Y123.663 E114.74755
G1 X118.164 Y124.442 E114.78683
G1 X118.168 Y143.123 E115.71883
G1 X117.986 Y144.013 E115.76415
G1 X117.588 Y144.768 E115.80673
G1 X117.419 Y144.988 E115.82057
G1 X116.801 Y145.486 E115.86017
G1 X116.005 Y145.882 E115.90453
G1 X115.226 Y145.996 E115.9438
G1 X113.168 Y146 E116.04648
G1 X113.168 Y182.123 E117.84866
G1 X112.986 Y183.013 E117.89398
G1 X112.588 Y183.768 E117.93656
G1 X112.419 Y183.988 E117.9504
G1 X111.801 Y184.486 E117.99
G1 X111.005 Y184.882 E118.03436
G1 X110.226 Y184.996 E118.07363
G1 X100.001 Y185 E118.58376
G1 X99.147 Y184.814 E118.62737
G1 X98.399 Y184.42 E118.66955
G1 X98.18 Y184.251 E118.68335
G1 X97.682 Y183.633 E118.72294
G1 X97.286 Y182.837 E118.7673
G1 X97.172 Y182.058 E118.80658
G1 X97.168 Y117.877 E122.00858
G1 X97.35 Y116.987 E122.0539
G1 X97.748 Y116.232 E122.09648
G1 X97.917 Y116.012 E122.11032
G0 F3600 X98.205 Y116.293
G1 F1800 X98.751 Y115.853 E122.14531
G1 X99.451 Y115.505 E122.18431
G1 X100.168 Y115.4 E122.22046
G1 X112.909 Y115.4 E122.85611
G1 X113.961 Y115.652 E122.91008
G1 X115.138 Y116.253 E122.97601
G1 X116.165 Y117.278 E123.0484
