;FLAVOR:Marlin
;TIME:8005
;Filament used: 3.6417m
;Layer height: 0.1
;MINX:63.938
;MINY:56.351
;MINZ:0.3
;MAXX:140.271
;MAXY:164.074
;MAXZ:70
;TARGET_MACHINE.NAME:Hellbot Magna 2 300
;Generated with Cura_SteamEngine 5.10.1
M140 S60
M105
M190 S60
M104 S200
M105
M109 S200
G28 ;Home
G1 Z15.0 F6000 ;Move the platform down 15mm
;Prime the extruder
G92 E0
G1 F200 E3
G92 E0
M82 ;absolute extrusion mode
G92 E0
G92 E0
G1 F1500 E-6.5
;LAYER_COUNT:698
;LAYER:0
M107
G0 F3600 X66.16 Y103.199 Z0.3
;TYPE:SKIRT
G1 F1500 E0
G1 F1800 X110.8 Y58.556 E3.1497
G1 X112.725 Y57.326 E3.26367
G1 X114.96 Y56.587 E3.38111
G1 X117.23 Y56.351 E3.49497
G1 X120.08 Y56.796 E3.63888
G1 X122.893 Y58.227 E3.79634
G1 X138.258 Y73.6 E4.8807
G1 X139.431 Y75.635 E4.99789
G1 X140.13 Y77.805 E5.11163
G1 X140.271 Y80.127 E5.22769
G1 X139.88 Y82.526 E5.34895
G1 X138.853 Y84.656 E5.46693
G1 X138.139 Y85.785 E5.53357
G1 X136.48 Y87.448 E5.65076
G1 X136.122 Y88.519 E5.7071
G1 X134.854 Y90.138 E5.8097
G1 X121.231 Y103.777 E6.77144
G1 X119.479 Y104.944 E6.87646
G1 X117.54 Y105.529 E6.97751
G1 X116.21 Y105.663 E7.0442
G1 X114.526 Y105.488 E7.12866
G1 X112.971 Y104.965 E7.21051
G1 X99.312 Y118.604 E8.17353
G1 X99.902 Y118.577 E8.20299
G1 X102.864 Y118.837 E8.35133
G1 X105.18 Y119.322 E8.46939
G1 X108.022 Y120.286 E8.61911
G1 X111.047 Y121.807 E8.78803
G1 X113.503 Y123.497 E8.93677
G1 X115.216 Y125.006 E9.05066
G1 X117.749 Y127.93 E9.24366
G1 X118.981 Y129.811 E9.35584
G1 X120.54 Y133.033 E9.53442
G1 X121.389 Y135.645 E9.67144
G1 X121.893 Y138.212 E9.80196
G1 X122.099 Y141.882 E9.98534
G1 X121.838 Y144.833 E10.13314
G1 X121.355 Y147.15 E10.25122
G1 X120.434 Y149.888 E10.39534
G1 X118.813 Y153.11 E10.57529
G1 X117.095 Y155.585 E10.7256
G1 X115.786 Y157.075 E10.82455
G1 X112.756 Y159.718 E11.02514
G1 X110.706 Y161.048 E11.14706
G1 X107.974 Y162.382 E11.29874
G1 X105.08 Y163.349 E11.45097
G1 X102.409 Y163.873 E11.58676
G1 X98.851 Y164.074 E11.76455
G1 X95.843 Y163.812 E11.91519
G1 X93.526 Y163.329 E12.03327
G1 X90.584 Y162.324 E12.18838
G1 X87.904 Y160.987 E12.3378
G1 X85.088 Y159.066 E12.50787
G1 X83.523 Y157.682 E12.6121
G1 X80.953 Y154.72 E12.80774
G1 X79.721 Y152.839 E12.91992
G1 X78.162 Y149.617 E13.0985
G1 X77.313 Y147.005 E13.23552
G1 X76.809 Y144.438 E13.36603
G1 X76.603 Y140.768 E13.54942
G1 X76.864 Y137.817 E13.69722
G1 X77.347 Y135.5 E13.8153
G1 X78.268 Y132.761 E13.95947
G1 X79.893 Y129.533 E14.13977
G1 X80.697 Y128.367 E14.21043
G1 X79.492 Y127.409 E14.28723
G1 X65.824 Y113.741 E15.25158
G1 X64.657 Y111.989 E15.3566
G1 X64.072 Y110.05 E15.45765
G1 X63.938 Y108.72 E15.52434
G1 X64.111 Y107.04 E15.6086
G1 X64.837 Y104.88 E15.72228
G1 X66.16 Y103.199 E15.82901
G0 F3600 X66.443 Y103.482
G1 F1800 X111.054 Y58.868 E18.97666
G1 X112.896 Y57.691 E19.08572
G1 X115.046 Y56.98 E19.19869
G1 X117.221 Y56.754 E19.30779
G1 X119.954 Y57.181 E19.44579
G1 X122.655 Y58.555 E19.59698
G1 X137.937 Y73.845 E20.67549
G1 X139.063 Y75.799 E20.788
G1 X139.734 Y77.882 E20.89718
G1 X139.869 Y80.105 E21.00829
G1 X139.494 Y82.407 E21.12466
G1 X138.515 Y84.442 E21.23732
G1 X137.823 Y85.536 E21.3019
G1 X136.131 Y87.233 E21.42146
G1 X135.765 Y88.327 E21.47901
G1 X134.571 Y89.855 E21.57576
G1 X120.976 Y103.466 E22.53552
G1 X119.306 Y104.579 E22.63565
G1 X117.462 Y105.135 E22.73174
G1 X116.211 Y105.261 E22.79446
G1 X114.611 Y105.095 E22.87472
G1 X112.863 Y104.507 E22.96673
G1 X98.291 Y119.058 E23.99412
G1 X99.867 Y118.975 E24.07286
G1 X102.782 Y119.229 E24.21884
G1 X105.098 Y119.714 E24.33689
G1 X107.893 Y120.665 E24.48418
G1 X110.82 Y122.137 E24.64764
G1 X113.276 Y123.827 E24.79637
G1 X114.914 Y125.268 E24.90522
G1 X117.414 Y128.149 E25.09552
G1 X118.646 Y130.03 E25.2077
G1 X120.18 Y133.207 E25.38371
G1 X120.996 Y135.722 E25.51563
G1 X121.5 Y138.289 E25.64614
G1 X121.701 Y141.847 E25.82393
G1 X121.446 Y144.751 E25.96937
G1 X120.963 Y147.068 E26.08745
G1 X120.055 Y149.76 E26.22919
G1 X118.484 Y152.882 E26.40355
G1 X116.794 Y155.321 E26.55159
G1 X115.485 Y156.811 E26.65054
G1 X112.538 Y159.382 E26.84566
G1 X110.488 Y160.712 E26.96757
G1 X107.847 Y162.003 E27.11423
G1 X105.003 Y162.956 E27.26387
G1 X102.332 Y163.48 E27.39967
G1 X98.829 Y163.675 E27.5747
G1 X95.925 Y163.42 E27.72014
G1 X93.608 Y162.937 E27.83822
G1 X90.763 Y161.966 E27.9882
G1 X88.083 Y160.629 E28.13762
G1 X85.353 Y158.766 E28.30251
G1 X83.788 Y157.382 E28.40674
G1 X81.288 Y154.501 E28.59705
G1 X80.056 Y152.62 E28.70923
G1 X78.522 Y149.443 E28.88524
G1 X77.706 Y146.928 E29.01715
G1 X77.202 Y144.361 E29.14766
G1 X77.001 Y140.803 E29.32546
G1 X77.256 Y137.899 E29.4709
G1 X77.739 Y135.582 E29.58898
G1 X78.647 Y132.889 E29.73076
G1 X80.222 Y129.76 E29.90553
G1 X81.239 Y128.286 E29.99487
G1 X79.775 Y127.126 E30.08806
G1 X66.135 Y113.486 E31.05044
G1 X65.022 Y111.816 E31.15056
G1 X64.466 Y109.972 E31.24665
G1 X64.34 Y108.721 E31.30938
G1 X64.504 Y107.125 E31.38942
G1 X65.194 Y105.074 E31.49738
G1 X66.443 Y103.482 E31.59833
G0 F3600 X66.726 Y103.765
G1 F1800 X111.308 Y59.18 E34.74394
G1 X113.067 Y58.056 E34.84808
G1 X115.132 Y57.373 E34.9566
G1 X117.212 Y57.157 E35.06093
G1 X119.828 Y57.566 E35.19302
G1 X122.417 Y58.883 E35.33794
G1 X137.616 Y74.09 E36.41059
G1 X138.695 Y75.963 E36.51844
G1 X139.338 Y77.959 E36.62306
G1 X139.467 Y80.083 E36.72922
G1 X139.108 Y82.285 E36.84053
G1 X138.177 Y84.228 E36.94802
G1 X137.507 Y85.287 E37.01054
G1 X135.781 Y87.018 E37.13249
G1 X135.408 Y88.135 E37.19124
G1 X134.288 Y89.572 E37.28214
G1 X120.721 Y103.155 E38.23993
G1 X119.133 Y104.213 E38.33513
G1 X117.383 Y104.741 E38.42632
G1 X116.212 Y104.859 E38.48504
G1 X114.695 Y104.701 E38.56113
G1 X112.755 Y104.049 E38.66324
G1 X97.268 Y119.514 E39.75516
G1 X99.833 Y119.374 E39.88332
G1 X102.7 Y119.621 E40.02688
G1 X105.016 Y120.106 E40.14493
G1 X107.764 Y121.044 E40.2898
G1 X110.593 Y122.467 E40.44779
G1 X113.049 Y124.157 E40.59652
G1 X114.649 Y125.568 E40.70295
G1 X117.079 Y128.368 E40.88792
G1 X118.311 Y130.249 E41.0001
G1 X119.8 Y133.331 E41.17086
G1 X120.603 Y135.799 E41.30035
G1 X121.107 Y138.366 E41.43086
G1 X121.302 Y141.812 E41.60306
G1 X121.054 Y144.669 E41.74613
G1 X120.571 Y146.986 E41.86421
G1 X119.676 Y149.632 E42.00357
G1 X118.155 Y152.654 E42.17235
G1 X116.493 Y155.057 E42.31812
G1 X115.184 Y156.547 E42.41707
G1 X112.32 Y159.046 E42.6067
G1 X110.27 Y160.376 E42.72861
G1 X107.672 Y161.643 E42.87282
G1 X104.926 Y162.563 E43.0173
G1 X102.255 Y163.087 E43.1531
G1 X98.864 Y163.276 E43.32254
G1 X96.007 Y163.028 E43.46561
G1 X93.69 Y162.545 E43.58369
G1 X90.942 Y161.608 E43.72854
G1 X88.262 Y160.271 E43.87796
G1 X85.618 Y158.466 E44.03768
G1 X84.053 Y157.082 E44.14191
G1 X81.623 Y154.282 E44.32687
G1 X80.391 Y152.401 E44.43905
G1 X78.902 Y149.319 E44.60982
G1 X78.099 Y146.851 E44.7393
G1 X77.595 Y144.284 E44.86982
G1 X77.4 Y140.838 E45.04201
G1 X77.648 Y137.981 E45.18509
G1 X78.131 Y135.664 E45.30317
G1 X79.026 Y133.017 E45.44257
G1 X80.551 Y129.987 E45.6118
G1 X81.811 Y128.16 E45.72253
G1 X81.607 Y128.067 E45.73371
G1 X80.058 Y126.843 E45.83221
G1 X66.446 Y113.231 E46.79261
G1 X65.388 Y111.643 E46.88781
G1 X64.86 Y109.893 E46.979
G1 X64.742 Y108.722 E47.03772
G1 X64.898 Y107.209 E47.1136
G1 X65.551 Y105.267 E47.21582
G1 X66.726 Y103.765 E47.31096
G0 F3600 X67.009 Y104.048
G1 F1800 X111.562 Y59.492 E50.45452
G1 X113.238 Y58.421 E50.55375
G1 X115.218 Y57.766 E50.6578
G1 X117.203 Y57.56 E50.75736
G1 X119.702 Y57.951 E50.88356
G1 X122.179 Y59.211 E51.0222
G1 X137.295 Y74.335 E52.089
G1 X138.327 Y76.127 E52.19217
G1 X138.942 Y78.036 E52.29223
G1 X139.065 Y80.061 E52.39344
G1 X138.722 Y82.165 E52.4998
G1 X137.839 Y84.014 E52.60203
G1 X137.191 Y85.038 E52.66248
G1 X135.431 Y86.803 E52.78684
G1 X135.051 Y87.941 E52.84669
G1 X133.972 Y89.326 E52.93429
G1 X120.466 Y102.844 E53.88763
G1 X118.96 Y103.848 E53.97793
G1 X117.305 Y104.347 E54.06417
G1 X116.213 Y104.457 E54.11893
G1 X114.78 Y104.308 E54.1908
G1 X113.017 Y103.715 E54.2836
G1 X112.722 Y103.517 E54.30133
G1 X96.196 Y120.019 E55.46648
G1 X96.524 Y119.955 E55.48315
G1 X99.855 Y119.773 E55.64959
G1 X102.618 Y120.013 E55.78795
G1 X104.934 Y120.498 E55.906
G1 X107.585 Y121.402 E56.04574
G1 X110.366 Y122.797 E56.20096
G1 X112.822 Y124.487 E56.3497
G1 X114.347 Y125.831 E56.45111
G1 X116.744 Y128.587 E56.63334
G1 X117.976 Y130.468 E56.74552
G1 X119.42 Y133.455 E56.91104
G1 X120.21 Y135.876 E57.03809
G1 X120.714 Y138.443 E57.16861
G1 X120.903 Y141.834 E57.33805
G1 X120.662 Y144.587 E57.47592
G1 X120.179 Y146.904 E57.594
G1 X119.297 Y149.503 E57.73093
G1 X117.826 Y152.427 E57.89423
G1 X116.192 Y154.793 E58.03768
G1 X114.883 Y156.283 E58.13663
G1 X112.102 Y158.711 E58.32081
G1 X110.095 Y160.016 E58.44025
G1 X107.497 Y161.283 E58.58445
G1 X104.849 Y162.17 E58.72378
G1 X102.178 Y162.694 E58.85958
G1 X98.842 Y162.877 E59.02626
G1 X96.089 Y162.636 E59.16413
G1 X93.772 Y162.153 E59.28221
G1 X91.121 Y161.25 E59.42193
G1 X88.441 Y159.913 E59.57135
G1 X85.883 Y158.166 E59.7259
G1 X84.355 Y156.819 E59.82752
G1 X81.958 Y154.063 E60.00975
G1 X80.726 Y152.182 E60.12193
G1 X79.282 Y149.195 E60.28745
G1 X78.492 Y146.774 E60.4145
G1 X77.988 Y144.207 E60.54502
G1 X77.799 Y140.816 E60.71446
G1 X78.04 Y138.063 E60.85233
G1 X78.523 Y135.746 E60.97041
G1 X79.405 Y133.145 E61.10743
G1 X80.88 Y130.214 E61.27113
G1 X82.444 Y127.946 E61.40858
G1 X81.855 Y127.753 E61.4395
G1 X80.341 Y126.56 E61.53567
G1 X66.757 Y112.976 E62.49409
G1 X65.753 Y111.47 E62.58439
G1 X65.254 Y109.815 E62.67063
G1 X65.144 Y108.723 E62.72539
G1 X65.292 Y107.293 E62.79711
G1 X65.908 Y105.459 E62.89363
G1 X67.009 Y104.048 E62.98292
G0 F3600 X67.292 Y104.331
G1 F1800 X111.816 Y59.804 E66.12444
G1 X113.409 Y58.786 E66.21876
G1 X115.304 Y58.159 E66.31834
G1 X117.194 Y57.963 E66.41314
G1 X119.576 Y58.336 E66.53342
G1 X121.941 Y59.539 E66.6658
G1 X136.974 Y74.58 E67.72674
G1 X137.959 Y76.291 E67.82524
G1 X138.546 Y78.113 E67.92074
G1 X138.663 Y80.039 E68.01701
G1 X138.336 Y82.045 E68.11841
G1 X137.478 Y83.842 E68.21775
G1 X136.876 Y84.788 E68.2737
G1 X135.082 Y86.588 E68.40048
G1 X134.694 Y87.747 E68.46146
G1 X133.656 Y89.08 E68.54575
G1 X120.211 Y102.533 E69.49465
G1 X118.787 Y103.482 E69.58002
G1 X117.226 Y103.953 E69.66137
G1 X116.214 Y104.055 E69.71211
G1 X114.865 Y103.915 E69.77978
G1 X113.145 Y103.336 E69.87032
G1 X112.685 Y102.988 E69.8991
G1 X94.983 Y120.665 E71.14719
G1 X96.601 Y120.348 E71.22944
G1 X99.821 Y120.172 E71.39033
G1 X102.536 Y120.405 E71.52628
G1 X104.852 Y120.89 E71.64433
G1 X107.406 Y121.76 E71.77894
G1 X110.187 Y123.155 E71.93416
G1 X112.558 Y124.788 E72.0778
G1 X114.045 Y126.094 E72.17653
G1 X116.409 Y128.806 E72.35602
G1 X117.641 Y130.687 E72.4682
G1 X119.04 Y133.579 E72.62848
G1 X119.817 Y135.953 E72.7531
G1 X120.321 Y138.52 E72.88362
G1 X120.504 Y141.8 E73.04751
G1 X120.27 Y144.505 E73.18297
G1 X119.787 Y146.822 E73.30105
G1 X118.918 Y149.374 E73.43555
G1 X117.497 Y152.2 E73.59336
G1 X115.891 Y154.529 E73.7345
G1 X114.582 Y156.019 E73.83345
G1 X111.884 Y158.376 E74.01218
G1 X109.92 Y159.656 E74.12914
G1 X107.322 Y160.923 E74.27334
G1 X104.772 Y161.777 E74.40751
G1 X102.101 Y162.301 E74.54331
G1 X98.876 Y162.478 E74.70444
G1 X96.171 Y162.244 E74.8399
G1 X93.854 Y161.761 E74.95798
G1 X91.3 Y160.892 E75.09258
G1 X88.62 Y159.555 E75.242
G1 X86.147 Y157.865 E75.39143
G1 X84.657 Y156.556 E75.49038
G1 X82.293 Y153.844 E75.66987
G1 X81.061 Y151.963 E75.78205
G1 X79.662 Y149.071 E75.94233
G1 X78.885 Y146.697 E76.06695
G1 X78.381 Y144.13 E76.19746
G1 X78.198 Y140.85 E76.36136
G1 X78.432 Y138.145 E76.49682
G1 X78.915 Y135.828 E76.6149
G1 X79.784 Y133.274 E76.74949
G1 X81.209 Y130.441 E76.9077
G1 X82.785 Y128.155 E77.04623
G1 X83.138 Y127.752 E77.07296
G1 X82.048 Y127.395 E77.13018
G1 X80.624 Y126.277 E77.2205
G1 X67.068 Y112.721 E78.17695
G1 X66.119 Y111.297 E78.26232
G1 X65.648 Y109.736 E78.34367
G1 X65.546 Y108.724 E78.39442
G1 X65.685 Y107.378 E78.46193
G1 X66.266 Y105.651 E78.55283
G1 X67.292 Y104.331 E78.63624
G0 F3600 X67.575 Y104.614
G1 F1800 X112.07 Y60.116 E81.77571
G1 X113.58 Y59.151 E81.86511
G1 X115.39 Y58.552 E81.96023
G1 X117.185 Y58.366 E82.05026
G1 X119.45 Y58.721 E82.16464
G1 X121.703 Y59.867 E82.29075
G1 X136.653 Y74.825 E83.34584
G1 X137.591 Y76.455 E83.43966
G1 X138.15 Y78.19 E83.5306
G1 X138.261 Y80.017 E83.62192
G1 X137.95 Y81.925 E83.71837
G1 X137.117 Y83.67 E83.81484
G1 X136.562 Y84.538 E83.86624
G1 X134.733 Y86.373 E83.99549
G1 X134.337 Y87.553 E84.05759
G1 X133.34 Y88.834 E84.13858
G1 X119.956 Y102.222 E85.08303
G1 X118.614 Y103.116 E85.16348
G1 X117.146 Y103.559 E85.23998
G1 X116.215 Y103.653 E85.28666
G1 X114.949 Y103.521 E85.35017
G1 X113.336 Y102.979 E85.43506
G1 X112.649 Y102.458 E85.47808
G1 X93.729 Y121.352 E86.81207
G1 X93.996 Y121.267 E86.82605
G1 X96.678 Y120.741 E86.9624
G1 X99.787 Y120.571 E87.11774
G1 X102.454 Y120.797 E87.25128
G1 X104.77 Y121.282 E87.36933
G1 X107.227 Y122.118 E87.49881
G1 X110.008 Y123.513 E87.65403
G1 X112.294 Y125.089 E87.79256
G1 X113.781 Y126.395 E87.8913
G1 X116.074 Y129.025 E88.06537
G1 X117.306 Y130.906 E88.17756
G1 X118.66 Y133.704 E88.33263
G1 X119.424 Y136.03 E88.45478
G1 X119.928 Y138.597 E88.58529
G1 X120.105 Y141.766 E88.74364
G1 X119.878 Y144.423 E88.87668
G1 X119.395 Y146.74 E88.99476
G1 X118.56 Y149.195 E89.12413
G1 X117.167 Y151.973 E89.27918
G1 X115.59 Y154.265 E89.41798
G1 X114.281 Y155.755 E89.51692
G1 X111.665 Y158.041 E89.69025
G1 X109.745 Y159.296 E89.80468
G1 X107.147 Y160.563 E89.94889
G1 X104.695 Y161.384 E90.0779
G1 X102.024 Y161.908 E90.21369
G1 X98.91 Y162.079 E90.36929
G1 X96.253 Y161.852 E90.50233
G1 X93.936 Y161.369 E90.62041
G1 X91.479 Y160.534 E90.74987
G1 X88.799 Y159.197 E90.89929
G1 X86.411 Y157.564 E91.04362
G1 X84.921 Y156.255 E91.14257
G1 X82.628 Y153.625 E91.31665
G1 X81.396 Y151.744 E91.42883
G1 X80.042 Y148.946 E91.58391
G1 X79.278 Y146.62 E91.70605
G1 X78.774 Y144.053 E91.83657
G1 X78.597 Y140.884 E91.99492
G1 X78.824 Y138.227 E92.12796
G1 X79.307 Y135.91 E92.24604
G1 X80.142 Y133.453 E92.3755
G1 X81.539 Y130.668 E92.53095
G1 X83.086 Y128.419 E92.66713
G1 X83.838 Y127.561 E92.72405
G1 X82.241 Y127.038 E92.80789
G1 X80.907 Y125.994 E92.8924
G1 X67.379 Y112.466 E93.84688
G1 X66.485 Y111.124 E93.92733
G1 X66.042 Y109.656 E94.00383
G1 X65.948 Y108.725 E94.05051
G1 X66.079 Y107.462 E94.11386
G1 X66.623 Y105.843 E94.19907
G1 X67.575 Y104.614 E94.27663
G0 F3600 X67.858 Y104.897
G1 F1800 X112.324 Y60.428 E97.41405
G1 X113.751 Y59.516 E97.49854
G1 X115.476 Y58.945 E97.5892
G1 X117.176 Y58.769 E97.67446
G1 X119.324 Y59.106 E97.78294
G1 X121.465 Y60.195 E97.90278
G1 X136.333 Y75.071 E98.95208
G1 X137.222 Y76.616 E99.041
G1 X137.754 Y78.267 E99.12754
G1 X137.859 Y79.995 E99.21391
G1 X137.564 Y81.805 E99.30541
G1 X136.78 Y83.454 E99.3965
G1 X136.246 Y84.289 E99.44595
G1 X134.384 Y86.157 E99.57753
G1 X133.98 Y87.359 E99.6408
G1 X133.024 Y88.588 E99.71848
G1 X119.701 Y101.911 E100.65849
G1 X118.441 Y102.75 E100.73401
G1 X117.066 Y103.165 E100.80567
G1 X116.216 Y103.251 E100.84829
G1 X115.034 Y103.128 E100.90758
G1 X113.527 Y102.621 E100.98691
G1 X112.613 Y101.928 E101.04413
G1 X92.253 Y122.261 E102.47969
G1 X94.073 Y121.66 E102.57531
G1 X96.755 Y121.134 E102.71166
G1 X99.754 Y120.97 E102.86151
G1 X102.372 Y121.189 E102.99258
G1 X104.688 Y121.674 E103.11063
G1 X107.048 Y122.476 E103.23498
G1 X109.781 Y123.843 E103.38744
G1 X112.03 Y125.39 E103.52362
G1 X113.517 Y126.696 E103.62236
G1 X115.739 Y129.244 E103.79103
G1 X116.971 Y131.125 E103.90321
G1 X118.28 Y133.829 E104.05309
G1 X119.031 Y136.107 E104.17275
G1 X119.535 Y138.674 E104.30327
G1 X119.706 Y141.732 E104.45607
G1 X119.486 Y144.341 E104.58669
G1 X119.003 Y146.658 E104.70477
G1 X118.202 Y149.016 E104.82902
G1 X116.809 Y151.794 E104.98406
G1 X115.289 Y154.001 E105.11776
G1 X113.98 Y155.491 E105.21671
G1 X111.446 Y157.706 E105.38462
G1 X109.57 Y158.936 E105.49653
G1 X106.972 Y160.203 E105.64074
G1 X104.618 Y160.991 E105.76459
G1 X101.947 Y161.515 E105.90038
G1 X98.944 Y161.68 E106.05043
G1 X96.335 Y161.46 E106.18106
G1 X94.018 Y160.977 E106.29914
G1 X91.658 Y160.176 E106.42347
G1 X88.978 Y158.839 E106.57289
G1 X86.675 Y157.263 E106.71212
G1 X85.185 Y155.954 E106.81107
