;FLAVOR:Marlin
;TIME:20424
;Filament used: 12.1884m
;Layer height: 0.1
;MINX:0.338
;MINY:102.566
;MINZ:0.3
;MAXX:125.938
;MAXY:285.666
;MAXZ:38
;TARGET_MACHINE.NAME:Hellbot Magna 2 300
;Generated with Cura_SteamEngine 5.10.0
M140 S60
M105
M190 S60
M104 S200
M105
M109 S200
G28 ;Home
G1 Z15.0 F6000 ;Move the platform down 15mm
;Prime the extruder
G92 E0
G1 F200 E3
G92 E0
M82 ;absolute extrusion mode
G92 E0
G92 E0
G1 F1500 E-6.5
;LAYER_COUNT:378
;LAYER:0
M107
G0 F3600 X9.185 Y102.594 Z0.3
;TYPE:SKIRT
G1 F1500 E0
G1 F1800 X13.24 Y102.566 E0.20231
G1 X15.315 Y102.99 E0.30797
G1 X17.188 Y104.047 E0.41527
G1 X18.071 Y104.738 E0.47121
G1 X19.18 Y106.115 E0.55942
G1 X20.164 Y108.089 E0.66946
G1 X20.386 Y109.612 E0.74624
G1 X20.438 Y135.988 E2.06215
G1 X20.016 Y138.045 E2.16691
G1 X19.021 Y139.816 E2.26826
G1 X18.247 Y140.817 E2.33138
G1 X16.893 Y141.904 E2.41801
G1 X14.898 Y142.899 E2.52923
G1 X13.091 Y143.138 E2.62017
G1 X9.036 Y143.166 E2.82248
G1 X6.961 Y142.742 E2.92814
G1 X5.088 Y141.685 E3.03544
G1 X4.205 Y140.994 E3.09138
G1 X3.096 Y139.617 E3.17959
G1 X2.112 Y137.643 E3.28963
G1 X1.89 Y136.12 E3.36641
G1 X1.838 Y109.744 E4.68232
G1 X2.26 Y107.687 E4.78708
G1 X3.255 Y105.916 E4.88843
G1 X4.029 Y104.915 E4.95155
G1 X5.383 Y103.828 E5.03818
G1 X7.378 Y102.833 E5.1494
G1 X9.185 Y102.594 E5.24034
G0 F3600 X9.238 Y102.991
G1 F1800 X13.201 Y102.966 E5.43806
G1 X15.173 Y103.369 E5.53848
G1 X16.941 Y104.362 E5.63964
G1 X17.788 Y105.025 E5.6933
G1 X18.843 Y106.335 E5.77722
G1 X19.777 Y108.209 E5.88168
G1 X19.99 Y109.67 E5.95534
G1 X20.038 Y135.947 E7.26631
G1 X19.636 Y137.904 E7.36598
G1 X18.705 Y139.571 E7.46124
G1 X17.961 Y140.533 E7.52192
G1 X16.674 Y141.567 E7.60428
G1 X14.781 Y142.51 E7.70979
G1 X13.038 Y142.741 E7.79751
G1 X9.075 Y142.766 E7.99523
G1 X7.103 Y142.363 E8.09565
G1 X5.335 Y141.37 E8.19681
G1 X4.488 Y140.707 E8.25048
G1 X3.433 Y139.397 E8.33439
G1 X2.499 Y137.523 E8.43885
G1 X2.286 Y136.062 E8.51251
G1 X2.238 Y109.785 E9.82348
G1 X2.64 Y107.828 E9.92315
G1 X3.571 Y106.161 E10.01841
G1 X4.315 Y105.199 E10.07909
G1 X5.602 Y104.165 E10.16145
G1 X7.495 Y103.222 E10.26696
G1 X9.238 Y102.991 E10.35468
G0 F3600 X9.29 Y103.388
G1 F1800 X13.161 Y103.366 E10.54781
G1 X15.033 Y103.749 E10.64314
G1 X16.694 Y104.677 E10.73806
G1 X17.507 Y105.314 E10.78959
G1 X18.504 Y106.551 E10.86885
G1 X19.39 Y108.329 E10.96796
G1 X19.594 Y109.728 E11.0385
G1 X19.638 Y135.905 E12.34447
G1 X19.256 Y137.763 E12.43911
G1 X18.389 Y139.326 E12.52828
G1 X17.674 Y140.251 E12.58661
G1 X16.457 Y141.228 E12.66447
G1 X14.664 Y142.122 E12.76443
G1 X12.986 Y142.344 E12.84887
G1 X9.115 Y142.366 E13.042
G1 X7.243 Y141.983 E13.13733
G1 X5.582 Y141.055 E13.23225
G1 X4.769 Y140.418 E13.28378
G1 X3.772 Y139.181 E13.36304
G1 X2.886 Y137.403 E13.46215
G1 X2.682 Y136.004 E13.53269
G1 X2.638 Y109.827 E14.83866
G1 X3.02 Y107.969 E14.9333
G1 X3.887 Y106.406 E15.02247
G1 X4.602 Y105.481 E15.0808
G1 X5.819 Y104.504 E15.15866
G1 X7.612 Y103.61 E15.25862
G1 X9.29 Y103.388 E15.34306
G0 F3600 X9.343 Y103.785
G1 F1800 X13.121 Y103.766 E15.53155
G1 X14.892 Y104.128 E15.62173
G1 X16.447 Y104.992 E15.71048
G1 X17.226 Y105.603 E15.75987
G1 X18.165 Y106.768 E15.83453
G1 X19.003 Y108.449 E15.92823
G1 X19.198 Y109.786 E15.99564
G1 X19.238 Y135.863 E17.29663
G1 X18.876 Y137.623 E17.38628
G1 X18.039 Y139.132 E17.47237
G1 X17.389 Y139.966 E17.52512
G1 X16.238 Y140.891 E17.59879
G1 X14.547 Y141.733 E17.69303
G1 X12.933 Y141.947 E17.77426
G1 X9.155 Y141.966 E17.96275
G1 X7.384 Y141.604 E18.05293
G1 X5.829 Y140.74 E18.14168
G1 X5.05 Y140.129 E18.19107
G1 X4.111 Y138.964 E18.26572
G1 X3.273 Y137.283 E18.35943
G1 X3.078 Y135.946 E18.42684
G1 X3.038 Y109.869 E19.72783
G1 X3.4 Y108.109 E19.81748
G1 X4.237 Y106.6 E19.90357
G1 X4.887 Y105.766 E19.95632
G1 X6.038 Y104.841 E20.02999
G1 X7.729 Y103.999 E20.12423
G1 X9.343 Y103.785 E20.20546
G0 F3600 X9.396 Y104.182
G1 F1800 X13.081 Y104.166 E20.38931
G1 X14.753 Y104.508 E20.47445
G1 X16.2 Y105.307 E20.55692
G1 X16.943 Y105.889 E20.604
G1 X17.828 Y106.988 E20.6744
G1 X18.616 Y108.569 E20.76253
G1 X18.802 Y109.844 E20.82681
G1 X18.838 Y135.821 E22.12281
G1 X18.496 Y137.483 E22.20747
G1 X17.689 Y138.938 E22.29048
G1 X17.103 Y139.683 E22.33776
G1 X16.021 Y140.552 E22.407
G1 X14.43 Y141.344 E22.49567
G1 X12.88 Y141.55 E22.57368
G1 X9.195 Y141.566 E22.75752
G1 X7.523 Y141.224 E22.84267
G1 X6.076 Y140.425 E22.92513
G1 X5.333 Y139.843 E22.97222
G1 X4.448 Y138.744 E23.04262
G1 X3.66 Y137.163 E23.13075
G1 X3.474 Y135.888 E23.19503
G1 X3.438 Y109.911 E24.49103
G1 X3.78 Y108.249 E24.57568
G1 X4.587 Y106.794 E24.65869
G1 X5.173 Y106.049 E24.70598
G1 X6.255 Y105.18 E24.77522
G1 X7.846 Y104.388 E24.86388
G1 X9.396 Y104.182 E24.94189
G0 F3600 X9.398 Y104.582
G1 F1800 X13.041 Y104.566 E25.12364
G1 X14.613 Y104.888 E25.2037
G1 X15.953 Y105.622 E25.27992
G1 X16.662 Y106.178 E25.32488
G1 X17.489 Y107.204 E25.39062
G1 X18.229 Y108.689 E25.4734
G1 X18.406 Y109.902 E25.53456
G1 X18.438 Y135.779 E26.82556
G1 X18.116 Y137.343 E26.90523
G1 X17.339 Y138.744 E26.98516
G1 X16.818 Y139.398 E27.02687
G1 X15.802 Y140.215 E27.09192
G1 X14.311 Y140.957 E27.175
G1 X12.878 Y141.15 E27.24714
G1 X9.235 Y141.166 E27.42889
G1 X7.663 Y140.844 E27.50895
G1 X6.323 Y140.11 E27.58518
G1 X5.614 Y139.554 E27.63013
G1 X4.787 Y138.528 E27.69587
G1 X4.047 Y137.043 E27.77865
G1 X3.87 Y135.83 E27.83981
G1 X3.838 Y109.953 E29.13082
G1 X4.16 Y108.389 E29.21048
G1 X4.937 Y106.988 E29.29041
G1 X5.458 Y106.334 E29.33212
G1 X6.474 Y105.517 E29.39717
G1 X7.965 Y104.775 E29.48025
G1 X9.398 Y104.582 E29.55239
G0 F3600 X9.4 Y104.982
G1 F1800 X13.001 Y104.966 E29.73205
G1 X14.475 Y105.268 E29.80712
G1 X15.706 Y105.937 E29.87701
G1 X16.381 Y106.467 E29.91983
G1 X17.15 Y107.42 E29.98092
G1 X17.842 Y108.809 E30.05835
G1 X18.01 Y109.96 E30.11638
G1 X18.038 Y135.737 E31.4024
G1 X17.736 Y137.204 E31.47712
G1 X17.026 Y138.495 E31.55063
G1 X16.534 Y139.112 E31.59
G1 X15.583 Y139.878 E31.65092
G1 X14.192 Y140.57 E31.72843
G1 X12.876 Y140.75 E31.7947
G1 X9.275 Y140.766 E31.97435
G1 X7.801 Y140.464 E32.04942
G1 X6.57 Y139.795 E32.11932
G1 X5.895 Y139.265 E32.16213
G1 X5.126 Y138.312 E32.22323
G1 X4.434 Y136.923 E32.30065
G1 X4.266 Y135.772 E32.35868
G1 X4.238 Y109.995 E33.6447
G1 X4.54 Y108.528 E33.71943
G1 X5.25 Y107.237 E33.79293
G1 X5.742 Y106.62 E33.8323
G1 X6.693 Y105.854 E33.89323
G1 X8.084 Y105.162 E33.97074
G1 X9.4 Y104.982 E34.037
G0 F3600 X9.402 Y105.382
G1 F1800 X12.961 Y105.366 E34.21456
G1 X14.337 Y105.648 E34.28464
G1 X15.459 Y106.252 E34.34821
G1 X16.1 Y106.755 E34.38886
G1 X16.811 Y107.637 E34.44538
G1 X17.455 Y108.929 E34.5174
G1 X17.614 Y110.018 E34.57231
G1 X17.638 Y135.695 E35.85334
G1 X17.356 Y137.066 E35.92317
G1 X16.713 Y138.246 E35.99022
G1 X16.248 Y138.829 E36.02742
G1 X15.367 Y139.539 E36.08387
G1 X14.073 Y140.183 E36.15598
G1 X12.874 Y140.35 E36.21638
G1 X9.315 Y140.366 E36.39394
G1 X7.939 Y140.084 E36.46402
G1 X6.817 Y139.48 E36.52759
G1 X6.176 Y138.977 E36.56824
G1 X5.465 Y138.095 E36.62476
G1 X4.821 Y136.803 E36.69678
G1 X4.662 Y135.714 E36.75169
G1 X4.638 Y110.037 E38.03272
G1 X4.92 Y108.666 E38.10255
G1 X5.563 Y107.486 E38.16959
G1 X6.028 Y106.903 E38.2068
G1 X6.909 Y106.193 E38.26325
G1 X8.203 Y105.549 E38.33536
G1 X9.402 Y105.382 E38.39575
G0 F3600 X9.404 Y105.782
G1 F1800 X12.921 Y105.766 E38.57122
G1 X14.199 Y106.028 E38.63631
G1 X15.269 Y106.604 E38.69693
G1 X15.816 Y107.04 E38.73183
G1 X16.474 Y107.857 E38.78417
G1 X17.068 Y109.049 E38.85061
G1 X17.218 Y110.076 E38.90239
G1 X17.238 Y135.653 E40.17843
G1 X16.976 Y136.928 E40.24337
G1 X16.4 Y137.997 E40.30395
G1 X15.964 Y138.544 E40.33885
G1 X15.147 Y139.202 E40.39119
G1 X13.954 Y139.796 E40.45768
G1 X12.872 Y139.95 E40.5122
G1 X9.355 Y139.966 E40.68767
G1 X8.077 Y139.704 E40.75275
G1 X7.007 Y139.128 E40.81338
G1 X6.46 Y138.692 E40.84828
G1 X5.802 Y137.875 E40.90061
G1 X5.208 Y136.683 E40.96706
G1 X5.058 Y135.656 E41.01884
G1 X5.038 Y110.079 E42.29488
G1 X5.3 Y108.804 E42.35982
G1 X5.876 Y107.735 E42.4204
G1 X6.312 Y107.188 E42.4553
G1 X7.129 Y106.53 E42.50764
G1 X8.322 Y105.936 E42.57412
G1 X9.404 Y105.782 E42.62865
G0 F3600 X9.406 Y106.182
G1 F1800 X12.881 Y106.166 E42.80202
G1 X14.061 Y106.408 E42.86212
G1 X15.079 Y106.956 E42.9198
G1 X15.529 Y107.322 E42.94873
G1 X16.137 Y108.077 E42.9971
G1 X16.681 Y109.169 E43.05796
G1 X16.822 Y110.134 E43.10662
G1 X16.838 Y135.612 E44.37772
G1 X16.596 Y136.79 E44.43772
G1 X16.048 Y137.807 E44.49535
G1 X15.682 Y138.257 E44.52429
G1 X14.927 Y138.865 E44.57266
G1 X13.835 Y139.409 E44.63352
G1 X12.87 Y139.55 E44.68218
G1 X9.395 Y139.566 E44.85555
G1 X8.215 Y139.324 E44.91564
G1 X7.197 Y138.776 E44.97332
G1 X6.747 Y138.41 E45.00226
G1 X6.139 Y137.655 E45.05062
G1 X5.595 Y136.563 E45.11149
G1 X5.454 Y135.598 E45.16014
G1 X5.438 Y110.12 E46.43125
G1 X5.68 Y108.942 E46.49124
G1 X6.228 Y107.925 E46.54888
G1 X6.594 Y107.475 E46.57782
G1 X7.349 Y106.867 E46.62618
G1 X8.441 Y106.323 E46.68705
G1 X9.406 Y106.182 E46.7357
G0 F3600 X9.464 Y106.578
G1 F1800 X12.841 Y106.566 E46.90418
G1 X13.924 Y106.788 E46.95934
G1 X14.832 Y107.271 E47.01065
G1 X15.217 Y107.573 E47.03506
G1 X15.8 Y108.297 E47.08144
G1 X16.294 Y109.289 E47.13672
G1 X16.426 Y110.192 E47.18225
G1 X16.438 Y135.571 E48.44842
G1 X16.216 Y136.652 E48.50347
G1 X15.733 Y137.56 E48.55478
G1 X15.431 Y137.945 E48.5792
G1 X14.707 Y138.528 E48.62557
G1 X13.715 Y139.022 E48.68086
G1 X12.812 Y139.154 E48.72639
G1 X9.435 Y139.166 E48.89487
G1 X8.352 Y138.944 E48.95002
G1 X7.444 Y138.461 E49.00134
G1 X7.059 Y138.159 E49.02575
G1 X6.476 Y137.435 E49.07212
G1 X5.982 Y136.443 E49.12741
G1 X5.85 Y135.54 E49.17294
G1 X5.838 Y110.161 E50.4391
G1 X6.06 Y109.08 E50.49416
G1 X6.543 Y108.172 E50.54547
G1 X6.845 Y107.787 E50.56988
G1 X7.569 Y107.204 E50.61626
G1 X8.561 Y106.71 E50.67155
G1 X9.464 Y106.578 E50.71708
G0 F3600 X9.522 Y106.974
G1 F1800 X12.801 Y106.966 E50.88067
G1 X13.788 Y107.168 E50.93093
G1 X14.593 Y107.592 E50.97632
G1 X14.905 Y107.824 E50.99572
G1 X15.463 Y108.517 E51.04011
G1 X15.907 Y109.409 E51.08982
G1 X16.03 Y110.25 E51.13222
G1 X16.038 Y135.53 E52.39345
G1 X15.836 Y136.516 E52.44366
G1 X15.412 Y137.321 E52.48905
G1 X15.18 Y137.633 E52.50845
G1 X14.487 Y138.191 E52.55284
G1 X13.595 Y138.635 E52.60255
G1 X12.754 Y138.758 E52.64495
G1 X9.475 Y138.766 E52.80854
G1 X8.488 Y138.564 E52.85881
G1 X7.683 Y138.14 E52.9042
G1 X7.371 Y137.908 E52.92359
G1 X6.813 Y137.215 E52.96798
G1 X6.369 Y136.323 E53.01769
G1 X6.246 Y135.482 E53.0601
G1 X6.238 Y110.202 E54.32132
G1 X6.44 Y109.216 E54.37154
G1 X6.864 Y108.411 E54.41693
G1 X7.096 Y108.099 E54.43632
G1 X7.789 Y107.541 E54.48071
G1 X8.681 Y107.097 E54.53042
G1 X9.522 Y106.974 E54.57283
G0 F3600 X9.58 Y107.37
G1 F1800 X12.761 Y107.366 E54.73153
G1 X13.651 Y107.548 E54.77685
G1 X14.406 Y107.946 E54.81943
G1 X14.626 Y108.115 E54.83327
G1 X15.124 Y108.733 E54.87287
G1 X15.52 Y109.529 E54.91722
G1 X15.634 Y110.308 E54.9565
G1 X15.638 Y135.489 E56.21279
G1 X15.456 Y136.379 E56.25811
G1 X15.058 Y137.134 E56.30069
G1 X14.889 Y137.354 E56.31453
G1 X14.271 Y137.852 E56.35413
G1 X13.475 Y138.248 E56.39848
G1 X12.696 Y138.362 E56.43776
G1 X9.515 Y138.366 E56.59646
G1 X8.625 Y138.184 E56.64178
G1 X7.87 Y137.786 E56.68436
G1 X7.65 Y137.617 E56.6982
G1 X7.152 Y136.999 E56.7378
G1 X6.756 Y136.203 E56.78215
G1 X6.642 Y135.424 E56.82143
G1 X6.638 Y110.243 E58.07772
G1 X6.82 Y109.353 E58.12304
G1 X7.218 Y108.598 E58.16562
G1 X7.387 Y108.378 E58.17946
G1 X8.005 Y107.88 E58.21906
G1 X8.801 Y107.484 E58.26341
G1 X9.58 Y107.37 E58.30269
G0 F3600 X9.638 Y107.766
G1 F1800 X8.921 Y107.871 E58.33884
G1 X8.221 Y108.219 E58.37784
G1 X7.675 Y108.659 E58.41283
G1 X7.572 Y108.784 E58.42091
G1 X7.201 Y109.488 E58.46061
G1 X7.038 Y110.284 E58.50115
G1 X7.038 Y135.366 E59.75249
G1 X7.143 Y136.083 E59.78865
G1 X7.491 Y136.783 E59.82765
G1 X7.931 Y137.329 E59.86263
G1 X8.056 Y137.432 E59.87071
G1 X8.76 Y137.803 E59.91041
G1 X9.556 Y137.966 E59.95095
G1 X12.638 Y137.966 E60.10471
G1 X13.355 Y137.861 E60.14086
G1 X14.055 Y137.513 E60.17986
G1 X14.601 Y137.073 E60.21485
G1 X14.704 Y136.948 E60.22293
G1 X15.075 Y136.244 E60.26263
G1 X15.238 Y135.448 E60.30317
G1 X15.238 Y110.366 E61.55451
G1 X15.133 Y109.649 E61.59067
G1 X14.785 Y108.949 E61.62967
G1 X14.345 Y108.403 E61.66465
G1 X14.22 Y108.3 E61.67273
G1 X13.516 Y107.929 E61.71243
G1 X12.72 Y107.766 E61.75297
G1 X9.638 Y107.766 E61.90673
G0 F3600 X9.638 Y108.166
G1 F1800 X12.679 Y108.166 E62.05845
G1 X13.381 Y108.31 E62.0942
G1 X14.034 Y108.654 E62.13102
G1 X14.446 Y109.165 E62.16377
G1 X14.747 Y109.771 E62.19753
G1 X14.838 Y110.366 E62.22756
G1 X14.838 Y135.407 E63.47686
G1 X14.694 Y136.109 E63.51261
G1 X14.35 Y136.762 E63.54943
G1 X13.839 Y137.174 E63.58218
G1 X13.233 Y137.475 E63.61594
G1 X12.638 Y137.566 E63.64597
G1 X9.597 Y137.566 E63.79768
G1 X8.895 Y137.422 E63.83344
G1 X8.242 Y137.078 E63.87026
G1 X7.83 Y136.567 E63.90301
G1 X7.529 Y135.961 E63.93676
G1 X7.438 Y135.366 E63.96679
G1 X7.438 Y110.325 E65.2161
G1 X7.582 Y109.623 E65.25185
G1 X7.926 Y108.97 E65.28867
G1 X8.437 Y108.558 E65.32142
G1 X9.043 Y108.257 E65.35518
G1 X9.638 Y108.166 E65.38521
G0 F3600 X9.638 Y108.566
G1 F1800 X12.638 Y108.566 E65.53488
G1 X13.244 Y108.69 E65.56574
G1 X13.776 Y108.971 E65.59575
G1 X14.088 Y109.343 E65.61997
G1 X14.361 Y109.892 E65.65056
G1 X14.438 Y110.366 E65.67452
G1 X14.438 Y135.366 E66.92178
G1 X14.314 Y135.972 E66.95264
G1 X14.033 Y136.504 E66.98265
G1 X13.661 Y136.816 E67.00688
G1 X13.112 Y137.089 E67.03747
G1 X12.638 Y137.166 E67.06142
G1 X9.638 Y137.166 E67.21109
G1 X9.032 Y137.042 E67.24195
G1 X8.5 Y136.761 E67.27197
G1 X8.188 Y136.389 E67.29619
G1 X7.915 Y135.84 E67.32678
G1 X7.838 Y135.366 E67.35074
G1 X7.838 Y110.366 E68.598
G1 X7.962 Y109.76 E68.62886
G1 X8.243 Y109.228 E68.65887
G1 X8.615 Y108.916 E68.68309
G1 X9.164 Y108.643 E68.71368
G1 X9.638 Y108.566 E68.73764
G0 F3600 X9.638 Y108.966
G1 F1800 X12.638 Y108.966 E68.88731
G1 X13.057 Y109.044 E68.90858
G1 X13.521 Y109.289 E68.93475
G1 X13.73 Y109.521 E68.95033
G1 X13.976 Y110.015 E68.97786
G1 X14.038 Y110.366 E68.99565
G1 X14.038 Y135.366 E70.2429
G1 X13.96 Y135.785 E70.26416
G1 X13.715 Y136.249 E70.29034
G1 X13.483 Y136.458 E70.30592
G1 X12.989 Y136.704 E70.33345
G1 X12.638 Y136.766 E70.35124
G1 X9.638 Y136.766 E70.50091
G1 X9.219 Y136.688 E70.52217
G1 X8.755 Y136.443 E70.54835
G1 X8.546 Y136.211 E70.56393
G1 X8.3 Y135.717 E70.59146
G1 X8.238 Y135.366 E70.60924
G1 X8.238 Y110.366 E71.8565
G1 X8.316 Y109.947 E71.87776
G1 X8.561 Y109.483 E71.90394
G1 X8.793 Y109.274 E71.91952
G1 X9.287 Y109.028 E71.94705
G1 X9.638 Y108.966 E71.96483
G0 F3600 X9.638 Y109.366
G1 F1800 X12.638 Y109.366 E72.1145
G1 X12.976 Y109.436 E72.13172
G1 X13.239 Y109.573 E72.14652
G1 X13.378 Y109.711 E72.15629
G1 X13.584 Y110.093 E72.17794
G1 X13.638 Y110.366 E72.19183
G1 X13.638 Y135.366 E73.43908
G1 X13.568 Y135.704 E73.4563
G1 X13.431 Y135.967 E73.4711
G1 X13.293 Y136.106 E73.48087
G1 X12.911 Y136.312 E73.50252
G1 X12.638 Y136.366 E73.5164
G1 X9.638 Y136.366 E73.66608
G1 X9.3 Y136.296 E73.6833
G1 X9.037 Y136.159 E73.69809
G1 X8.898 Y136.021 E73.70786
G1 X8.692 Y135.639 E73.72952
G1 X8.638 Y135.366 E73.7434
G1 X8.638 Y110.366 E74.99065
G1 X8.708 Y110.028 E75.00788
G1 X8.845 Y109.765 E75.02267
G1 X8.983 Y109.626 E75.03244
G1 X9.365 Y109.42 E75.05409
G1 X9.638 Y109.366 E75.06798
G0 F3600 X9.638 Y110.166
G1 F1800 X12.638 Y110.166 E75.21765
G1 X12.757 Y110.205 E75.2239
G1 X12.838 Y110.366 E75.23289
G1 X12.838 Y135.366 E76.48014
G1 X12.799 Y135.485 E76.48639
G1 X12.638 Y135.566 E76.49538
G1 X9.638 Y135.566 E76.64505
G1 X9.519 Y135.527 E76.6513
G1 X9.438 Y135.366 E76.66029
G1 X9.438 Y110.366 E77.90755
G1 X9.477 Y110.247 E77.91379
G1 X9.638 Y110.166 E77.92279
G0 F3600 X9.458 Y109.809
G1 F1800 X9.638 Y109.766 E77.93202
G1 X12.638 Y109.766 E78.08169
G1 X12.882 Y109.825 E78.09421
G1 X13.034 Y109.916 E78.10305
G1 X13.195 Y110.186 E78.11874
G1 X13.238 Y110.366 E78.12797
G1 X13.238 Y135.366 E79.37522
G1 X13.179 Y135.61 E79.38775
G1 X13.088 Y135.762 E79.39659
G1 X12.818 Y135.923 E79.41227
G1 X12.638 Y135.966 E79.4215
G1 X9.638 Y135.966 E79.57117
